(.../eagle/ulps/_pcb-gcode/pcb-gcode.ulp)
(Copyright 2005 - 2012 by John Johnson)
(See readme.txt for licensing terms.)
(This file generated from the board:)
(.../workspace/EEG1CH/EEG1CH.brd)
(Current profile is .../_pcb-gcode/profiles/generic.pp  )
(This file generated 2021/06/19 20:58)
(Settings from pcb-machine.h)
(  Tool Size)
(0.1000 )
(Z Axis Settings)
(  High     Up        Down     Drill)
(8.0000 	4.0000 	-0.1000 	-1.2000 )
(spindle on time = 3.0000)
(milling depth = -1.4000)
(text depth = -0.1270)
(tool change at 0.0000 0.0000 30.0000 )
(feed rate xy = F100.00 )
(feed rate z  = F50.00 )
(Settings from pcb-defaults.h)
(isolate min = 0.0250)
(isolate max = 0.5000)
(isolate step = 0.1000)
(Generated top outlines, top drill, )
(Unit of measure: mm)
( Tool|       Size       |  Min Sub |  Max Sub |   Count )
( T01  0.500mm 0.0197in 0.0000in 0.0000in )
( T02  0.813mm 0.0320in 0.0000in 0.0000in )
( T03  1.016mm 0.0400in 0.0000in 0.0000in )
( T04  1.321mm 0.0520in 0.0000in 0.0000in )
(Metric Mode)
G21
(Absolute Coordinates)
G90
M05
G00 Z30.0000 
G00 X0.0000 Y0.0000 
M06 T01  ; 0.5000 
G01 Z0.0000 F50.00 
M06 T01  ; 0.5000 
G00 Z4.0000 
M03
G04 P3.000000
G00 Z4.000000
G00 X0.0000 Y5.0800 
G01 Z-1.2000 F50.00 
G01 Z4.000000
(R4.0000  P1.000000)
(G00 Z4.000000)
G00 X0.0000 Y7.6200 
G01 Z-1.200000
G01 Z4.000000
(G00 Z4.000000)
G00 X48.2600 Y5.0800 
G01 Z-1.200000
G01 Z4.000000
(G00 Z4.000000)
G00 X48.2600 Y7.6200 
G01 Z-1.200000
G01 Z4.000000
M05
G00 Z30.0000 
M06 T02  ; 0.8128 
G01 Z0.0000 F50.00 
M06 T02  ; 0.8128 
G00 Z4.0000 
M03
G04 P3.000000
G00 Z4.000000
G00 X3.8100 Y10.1854 
G01 Z-1.2000 F50.00 
G01 Z4.000000
(R4.0000  P1.000000)
(G00 Z4.000000)
G00 X3.8100 Y2.5400 
G01 Z-1.200000
G01 Z4.000000
(G00 Z4.000000)
G00 X39.3700 Y5.0800 
G01 Z-1.200000
G01 Z4.000000
(G00 Z4.000000)
G00 X39.3700 Y2.5400 
G01 Z-1.200000
G01 Z4.000000
(G00 Z4.000000)
G00 X41.9100 Y7.6200 
G01 Z-1.200000
G01 Z4.000000
(G00 Z4.000000)
G00 X41.9100 Y10.1600 
G01 Z-1.200000
G01 Z4.000000
(G00 Z4.000000)
G00 X44.4500 Y5.1308 
G01 Z-1.200000
G01 Z4.000000
(G00 Z4.000000)
G00 X44.4500 Y2.5908 
G01 Z-1.200000
G01 Z4.000000
(G00 Z4.000000)
G00 X6.3500 Y10.1854 
G01 Z-1.200000
G01 Z4.000000
(G00 Z4.000000)
G00 X6.3500 Y2.5400 
G01 Z-1.200000
G01 Z4.000000
(G00 Z4.000000)
G00 X23.1394 Y5.1054 
G01 Z-1.200000
G01 Z4.000000
(G00 Z4.000000)
G00 X23.1394 Y7.6454 
G01 Z-1.200000
G01 Z4.000000
M05
G00 Z30.0000 
M06 T03  ; 1.0160 
G01 Z0.0000 F50.00 
M06 T03  ; 1.0160 
G00 Z4.0000 
M03
G04 P3.000000
G00 Z4.000000
G00 X7.5946 Y5.0800 
G01 Z-1.2000 F50.00 
G01 Z4.000000
(R4.0000  P1.000000)
(G00 Z4.000000)
G00 X7.5946 Y7.6200 
G01 Z-1.200000
G01 Z4.000000
(G00 Z4.000000)
G00 X8.8900 Y10.1600 
G01 Z-1.200000
G01 Z4.000000
(G00 Z4.000000)
G00 X8.8900 Y2.5400 
G01 Z-1.200000
G01 Z4.000000
(G00 Z4.000000)
G00 X26.4922 Y4.3942 
G01 Z-1.200000
G01 Z4.000000
(G00 Z4.000000)
G00 X26.4922 Y6.9342 
G01 Z-1.200000
G01 Z4.000000
(G00 Z4.000000)
G00 X26.4922 Y9.4742 
G01 Z-1.200000
G01 Z4.000000
M05
G00 Z30.0000 
M06 T04  ; 1.3208 
G01 Z0.0000 F50.00 
M06 T04  ; 1.3208 
G00 Z4.0000 
M03
G04 P3.000000
G00 Z4.000000
G00 X3.8100 Y7.6200 
G01 Z-1.2000 F50.00 
G01 Z4.000000
(R4.0000  P1.000000)
(G00 Z4.000000)
G00 X3.8608 Y5.1054 
G01 Z-1.200000
G01 Z4.000000
T01 
G00 Z8.0000 
M05
M02
