(.../eagle/ulps/_pcb-gcode/pcb-gcode.ulp)
(Copyright 2005 - 2012 by John Johnson)
(See readme.txt for licensing terms.)
(This file generated from the board:)
(.../workspace/EEG1CH/EEG1CH.brd)
(Current profile is .../_pcb-gcode/profiles/generic.pp  )
(This file generated 2021/06/19 20:33)
(Settings from pcb-machine.h)
(  Tool Size)
(0.1000 )
(Z Axis Settings)
(  High     Up        Down     Drill)
(8.0000 	4.0000 	-0.1000 	-1.2000 )
(spindle on time = 3.0000)
(milling depth = -1.4000)
(text depth = -0.1270)
(tool change at 0.0000 0.0000 30.0000 )
(feed rate xy = F100.00 )
(feed rate z  = F50.00 )
(Settings from pcb-defaults.h)
(isolate min = 0.0250)
(isolate max = 0.5000)
(isolate step = 0.1000)
(Generated top outlines, top drill, bottom outlines, bottom drill, )
(Unit of measure: mm)
(Metric Mode)
G21
(Absolute Coordinates)
G90
G00 X0.0000 Y0.0000 
M03
G04 P3.000000
G00 Z4.0000 
G00 X-6.7502 Y4.2430 
G01 Z-0.1000 F50.00 
G01 X-8.4390 Y4.2430 F100.00 
G01 X-8.6007 Y4.2752 
G01 X-8.7531 Y4.3383 
G01 X-8.8902 Y4.4299 
G01 X-9.0067 Y4.5464 
G01 X-9.0983 Y4.6835 
G01 X-9.1614 Y4.8359 
G01 X-9.1936 Y4.9976 
G01 X-9.1936 Y5.1624 
G01 X-9.1614 Y5.3241 
G01 X-9.0983 Y5.4765 
G01 X-9.0067 Y5.6136 
G01 X-8.8902 Y5.7301 
G01 X-8.7531 Y5.8217 
G01 X-8.6007 Y5.8848 
G01 X-8.4390 Y5.9170 
G01 X-6.7502 Y5.9170 
G01 X-6.5885 Y5.8848 
G01 X-6.4361 Y5.8217 
G01 X-6.2990 Y5.7301 
G01 X-6.1825 Y5.6136 
G01 X-6.0909 Y5.4765 
G01 X-6.0278 Y5.3241 
G01 X-5.9956 Y5.1624 
G01 X-5.9956 Y4.9976 
G01 X-6.0278 Y4.8359 
G01 X-6.0909 Y4.6835 
G01 X-6.1825 Y4.5464 
G01 X-6.2990 Y4.4299 
G01 X-6.4361 Y4.3383 
G01 X-6.5885 Y4.2752 
G01 X-6.7502 Y4.2430 
G00 Z4.0000 
G00 X-6.7502 Y6.7830 
G01 Z-0.1000 F50.00 
G01 X-8.4390 Y6.7830 F100.00 
G01 X-8.6007 Y6.8152 
G01 X-8.7531 Y6.8783 
G01 X-8.8902 Y6.9699 
G01 X-9.0067 Y7.0864 
G01 X-9.0983 Y7.2235 
G01 X-9.1614 Y7.3759 
G01 X-9.1936 Y7.5376 
G01 X-9.1936 Y7.7024 
G01 X-9.1614 Y7.8641 
G01 X-9.0983 Y8.0165 
G01 X-9.0067 Y8.1536 
G01 X-8.8902 Y8.2701 
G01 X-8.7531 Y8.3617 
G01 X-8.6007 Y8.4248 
G01 X-8.4390 Y8.4570 
G01 X-6.7502 Y8.4570 
G01 X-6.5885 Y8.4248 
G01 X-6.4361 Y8.3617 
G01 X-6.2990 Y8.2701 
G01 X-6.1825 Y8.1536 
G01 X-6.0909 Y8.0165 
G01 X-6.0278 Y7.8641 
G01 X-5.9956 Y7.7024 
G01 X-5.9956 Y7.5376 
G01 X-6.0278 Y7.3759 
G01 X-6.0909 Y7.2235 
G01 X-6.1825 Y7.0864 
G01 X-6.2990 Y6.9699 
G01 X-6.4361 Y6.8783 
G01 X-6.5885 Y6.8152 
G01 X-6.7502 Y6.7830 
G00 Z4.0000 
G00 X-5.0153 Y4.6272 
G01 Z-0.1000 F50.00 
G01 X-5.0153 Y5.5836 F100.00 
G01 X-4.3390 Y6.2599 
G01 X-3.3826 Y6.2599 
G01 X-2.7063 Y5.5836 
G01 X-2.7063 Y4.6272 
G01 X-3.3826 Y3.9509 
G01 X-4.3390 Y3.9509 
G01 X-5.0153 Y4.6272 
G00 Z4.0000 
G00 X-4.9645 Y7.1418 
G01 Z-0.1000 F50.00 
G01 X-4.9645 Y8.0982 F100.00 
G01 X-4.2882 Y8.7745 
G01 X-3.3318 Y8.7745 
G01 X-2.6555 Y8.0982 
G01 X-2.6555 Y7.1418 
G01 X-3.3318 Y6.4655 
G01 X-4.2882 Y6.4655 
G01 X-4.9645 Y7.1418 
G00 Z4.0000 
G00 X-4.6851 Y9.8229 
G01 Z-0.1000 F50.00 
G01 X-4.6851 Y10.5479 F100.00 
G01 X-4.1725 Y11.0605 
G01 X-3.4475 Y11.0605 
G01 X-2.9349 Y10.5479 
G01 X-2.9349 Y9.8229 
G01 X-3.4475 Y9.3103 
G01 X-4.1725 Y9.3103 
G01 X-4.6851 Y9.8229 
G00 Z4.0000 
G00 X-7.2251 Y9.8229 
G01 Z-0.1000 F50.00 
G01 X-7.2251 Y10.5479 F100.00 
G01 X-6.7125 Y11.0605 
G01 X-5.9875 Y11.0605 
G01 X-5.4749 Y10.5479 
G01 X-5.4749 Y9.8229 
G01 X-5.9875 Y9.3103 
G01 X-6.7125 Y9.3103 
G01 X-7.2251 Y9.8229 
G00 Z4.0000 
G00 X-4.6851 Y2.1775 
G01 Z-0.1000 F50.00 
G01 X-4.6851 Y2.9025 F100.00 
G01 X-4.1725 Y3.4151 
G01 X-3.4475 Y3.4151 
G01 X-2.9349 Y2.9025 
G01 X-2.9349 Y2.1775 
G01 X-3.4475 Y1.6649 
G01 X-4.1725 Y1.6649 
G01 X-4.6851 Y2.1775 
G00 Z4.0000 
G00 X-7.2251 Y2.1775 
G01 Z-0.1000 F50.00 
G01 X-7.2251 Y2.9025 F100.00 
G01 X-6.7125 Y3.4151 
G01 X-5.9875 Y3.4151 
G01 X-5.4749 Y2.9025 
G01 X-5.4749 Y2.1775 
G01 X-5.9875 Y1.6649 
G01 X-6.7125 Y1.6649 
G01 X-7.2251 Y2.1775 
G00 Z4.0000 
G00 X-24.0145 Y7.2829 
G01 Z-0.1000 F50.00 
G01 X-24.0145 Y8.0079 F100.00 
G01 X-23.5019 Y8.5205 
G01 X-22.7769 Y8.5205 
G01 X-22.2643 Y8.0079 
G01 X-22.2643 Y7.2829 
G01 X-22.7769 Y6.7703 
G01 X-23.5019 Y6.7703 
G01 X-24.0145 Y7.2829 
G00 Z4.0000 
G00 X-24.0145 Y4.7429 
G01 Z-0.1000 F50.00 
G01 X-24.0145 Y5.4679 F100.00 
G01 X-23.5019 Y5.9805 
G01 X-22.7769 Y5.9805 
G01 X-22.2643 Y5.4679 
G01 X-22.2643 Y4.7429 
G01 X-22.7769 Y4.2303 
G01 X-23.5019 Y4.2303 
G01 X-24.0145 Y4.7429 
G00 Z4.0000 
G00 X-27.3366 Y10.3112 
G01 Z-0.1000 F50.00 
G01 X-25.6478 Y10.3112 F100.00 
G01 X-25.4861 Y10.2790 
G01 X-25.3337 Y10.2159 
G01 X-25.1966 Y10.1243 
G01 X-25.0801 Y10.0078 
G01 X-24.9885 Y9.8707 
G01 X-24.9254 Y9.7183 
G01 X-24.8932 Y9.5566 
G01 X-24.8932 Y9.3918 
G01 X-24.9254 Y9.2301 
G01 X-24.9885 Y9.0777 
G01 X-25.0801 Y8.9406 
G01 X-25.1966 Y8.8241 
G01 X-25.3337 Y8.7325 
G01 X-25.4861 Y8.6694 
G01 X-25.6478 Y8.6372 
G01 X-27.3366 Y8.6372 
G01 X-27.4983 Y8.6694 
G01 X-27.6507 Y8.7325 
G01 X-27.7878 Y8.8241 
G01 X-27.9043 Y8.9406 
G01 X-27.9959 Y9.0777 
G01 X-28.0590 Y9.2301 
G01 X-28.0912 Y9.3918 
G01 X-28.0912 Y9.5566 
G01 X-28.0590 Y9.7183 
G01 X-27.9959 Y9.8707 
G01 X-27.9043 Y10.0078 
G01 X-27.7878 Y10.1243 
G01 X-27.6507 Y10.2159 
G01 X-27.4983 Y10.2790 
G01 X-27.3366 Y10.3112 
G00 Z4.0000 
G00 X-27.3366 Y7.7712 
G01 Z-0.1000 F50.00 
G01 X-25.6478 Y7.7712 F100.00 
G01 X-25.4861 Y7.7390 
G01 X-25.3337 Y7.6759 
G01 X-25.1966 Y7.5843 
G01 X-25.0801 Y7.4678 
G01 X-24.9885 Y7.3307 
G01 X-24.9254 Y7.1783 
G01 X-24.8932 Y7.0166 
G01 X-24.8932 Y6.8518 
G01 X-24.9254 Y6.6901 
G01 X-24.9885 Y6.5377 
G01 X-25.0801 Y6.4006 
G01 X-25.1966 Y6.2841 
G01 X-25.3337 Y6.1925 
G01 X-25.4861 Y6.1294 
G01 X-25.6478 Y6.0972 
G01 X-27.3366 Y6.0972 
G01 X-27.4983 Y6.1294 
G01 X-27.6507 Y6.1925 
G01 X-27.7878 Y6.2841 
G01 X-27.9043 Y6.4006 
G01 X-27.9959 Y6.5377 
G01 X-28.0590 Y6.6901 
G01 X-28.0912 Y6.8518 
G01 X-28.0912 Y7.0166 
G01 X-28.0590 Y7.1783 
G01 X-27.9959 Y7.3307 
G01 X-27.9043 Y7.4678 
G01 X-27.7878 Y7.5843 
G01 X-27.6507 Y7.6759 
G01 X-27.4983 Y7.7390 
G01 X-27.3366 Y7.7712 
G00 Z4.0000 
G00 X-27.3366 Y5.2312 
G01 Z-0.1000 F50.00 
G01 X-25.6478 Y5.2312 F100.00 
G01 X-25.4861 Y5.1990 
G01 X-25.3337 Y5.1359 
G01 X-25.1966 Y5.0443 
G01 X-25.0801 Y4.9278 
G01 X-24.9885 Y4.7907 
G01 X-24.9254 Y4.6383 
G01 X-24.8932 Y4.4766 
G01 X-24.8932 Y4.3118 
G01 X-24.9254 Y4.1501 
G01 X-24.9885 Y3.9977 
G01 X-25.0801 Y3.8606 
G01 X-25.1966 Y3.7441 
G01 X-25.3337 Y3.6525 
G01 X-25.4861 Y3.5894 
G01 X-25.6478 Y3.5572 
G01 X-27.3366 Y3.5572 
G01 X-27.4983 Y3.5894 
G01 X-27.6507 Y3.6525 
G01 X-27.7878 Y3.7441 
G01 X-27.9043 Y3.8606 
G01 X-27.9959 Y3.9977 
G01 X-28.0590 Y4.1501 
G01 X-28.0912 Y4.3118 
G01 X-28.0912 Y4.4766 
G01 X-28.0590 Y4.6383 
G01 X-27.9959 Y4.7907 
G01 X-27.9043 Y4.9278 
G01 X-27.7878 Y5.0443 
G01 X-27.6507 Y5.1359 
G01 X-27.4983 Y5.1990 
G01 X-27.3366 Y5.2312 
G00 Z4.0000 
G00 X-40.2451 Y2.1775 
G01 Z-0.1000 F50.00 
G01 X-40.2451 Y2.9025 F100.00 
G01 X-39.7325 Y3.4151 
G01 X-39.0075 Y3.4151 
G01 X-38.4949 Y2.9025 
G01 X-38.4949 Y2.1775 
G01 X-39.0075 Y1.6649 
G01 X-39.7325 Y1.6649 
G01 X-40.2451 Y2.1775 
G00 Z4.0000 
G00 X-40.2451 Y4.7175 
G01 Z-0.1000 F50.00 
G01 X-40.2451 Y5.4425 F100.00 
G01 X-39.7325 Y5.9551 
G01 X-39.0075 Y5.9551 
G01 X-38.4949 Y5.4425 
G01 X-38.4949 Y4.7175 
G01 X-39.0075 Y4.2049 
G01 X-39.7325 Y4.2049 
G01 X-40.2451 Y4.7175 
G00 Z4.0000 
G00 X-45.3251 Y2.2283 
G01 Z-0.1000 F50.00 
G01 X-45.3251 Y2.9533 F100.00 
G01 X-44.8125 Y3.4659 
G01 X-44.0875 Y3.4659 
G01 X-43.5749 Y2.9533 
G01 X-43.5749 Y2.2283 
G01 X-44.0875 Y1.7157 
G01 X-44.8125 Y1.7157 
G01 X-45.3251 Y2.2283 
G00 Z4.0000 
G00 X-45.3251 Y4.7683 
G01 Z-0.1000 F50.00 
G01 X-45.3251 Y5.4933 F100.00 
G01 X-44.8125 Y6.0059 
G01 X-44.0875 Y6.0059 
G01 X-43.5749 Y5.4933 
G01 X-43.5749 Y4.7683 
G01 X-44.0875 Y4.2557 
G01 X-44.8125 Y4.2557 
G01 X-45.3251 Y4.7683 
G00 Z4.0000 
G00 X-42.7851 Y7.2575 
G01 Z-0.1000 F50.00 
G01 X-42.7851 Y7.9825 F100.00 
G01 X-42.2725 Y8.4951 
G01 X-41.5475 Y8.4951 
G01 X-41.0349 Y7.9825 
G01 X-41.0349 Y7.2575 
G01 X-41.5475 Y6.7449 
G01 X-42.2725 Y6.7449 
G01 X-42.7851 Y7.2575 
G00 Z4.0000 
G00 X-42.7851 Y9.7975 
G01 Z-0.1000 F50.00 
G01 X-42.7851 Y10.5225 F100.00 
G01 X-42.2725 Y11.0351 
G01 X-41.5475 Y11.0351 
G01 X-41.0349 Y10.5225 
G01 X-41.0349 Y9.7975 
G01 X-41.5475 Y9.2849 
G01 X-42.2725 Y9.2849 
G01 X-42.7851 Y9.7975 
G00 Z4.0000 
G00 X-9.7270 Y2.1933 
G01 Z-0.1000 F50.00 
G01 X-9.7270 Y2.8867 F100.00 
G01 X-9.2367 Y3.3770 
G01 X-8.5433 Y3.3770 
G01 X-8.0530 Y2.8867 
G01 X-8.0530 Y2.1933 
G01 X-8.5433 Y1.7030 
G01 X-9.2367 Y1.7030 
G01 X-9.7270 Y2.1933 
G00 Z4.0000 
G00 X-9.7270 Y9.8133 
G01 Z-0.1000 F50.00 
G01 X-9.7270 Y10.5067 F100.00 
G01 X-9.2367 Y10.9970 
G01 X-8.5433 Y10.9970 
G01 X-8.0530 Y10.5067 
G01 X-8.0530 Y9.8133 
G01 X-8.5433 Y9.3230 
G01 X-9.2367 Y9.3230 
G01 X-9.7270 Y9.8133 
G00 Z4.0000 
G00 X-6.7403 Y4.1430 
G01 Z-0.1000 F50.00 
G01 X-8.4489 Y4.1430 F100.00 
G01 X-8.6299 Y4.1790 
G01 X-8.8004 Y4.2496 
G01 X-8.9539 Y4.3522 
G01 X-9.0844 Y4.4827 
G01 X-9.1870 Y4.6362 
G01 X-9.2576 Y4.8067 
G01 X-9.2936 Y4.9877 
G01 X-9.2936 Y5.1723 
G01 X-9.2576 Y5.3533 
G01 X-9.1870 Y5.5238 
G01 X-9.0844 Y5.6773 
G01 X-8.9539 Y5.8078 
G01 X-8.8004 Y5.9104 
G01 X-8.6299 Y5.9810 
G01 X-8.4489 Y6.0170 
G01 X-6.7403 Y6.0170 
G01 X-6.5593 Y5.9810 
G01 X-6.3888 Y5.9104 
G01 X-6.2353 Y5.8078 
G01 X-6.1048 Y5.6773 
G01 X-6.0022 Y5.5238 
G01 X-5.9316 Y5.3533 
G01 X-5.8956 Y5.1723 
G01 X-5.8956 Y4.9877 
G01 X-5.9316 Y4.8067 
G01 X-6.0022 Y4.6362 
G01 X-6.1048 Y4.4827 
G01 X-6.2353 Y4.3522 
G01 X-6.3888 Y4.2496 
G01 X-6.5593 Y4.1790 
G01 X-6.7403 Y4.1430 
G00 Z4.0000 
G00 X-6.7403 Y6.6830 
G01 Z-0.1000 F50.00 
G01 X-8.4489 Y6.6830 F100.00 
G01 X-8.6299 Y6.7190 
G01 X-8.8004 Y6.7896 
G01 X-8.9539 Y6.8922 
G01 X-9.0844 Y7.0227 
G01 X-9.1870 Y7.1762 
G01 X-9.2576 Y7.3467 
G01 X-9.2936 Y7.5277 
G01 X-9.2936 Y7.7123 
G01 X-9.2576 Y7.8933 
G01 X-9.1870 Y8.0638 
G01 X-9.0844 Y8.2173 
G01 X-8.9539 Y8.3478 
G01 X-8.8004 Y8.4504 
G01 X-8.6299 Y8.5210 
G01 X-8.4489 Y8.5570 
G01 X-6.7403 Y8.5570 
G01 X-6.5593 Y8.5210 
G01 X-6.3888 Y8.4504 
G01 X-6.2353 Y8.3478 
G01 X-6.1048 Y8.2173 
G01 X-6.0022 Y8.0638 
G01 X-5.9316 Y7.8933 
G01 X-5.8956 Y7.7123 
G01 X-5.8956 Y7.5277 
G01 X-5.9316 Y7.3467 
G01 X-6.0022 Y7.1762 
G01 X-6.1048 Y7.0227 
G01 X-6.2353 Y6.8922 
G01 X-6.3888 Y6.7896 
G01 X-6.5593 Y6.7190 
G01 X-6.7403 Y6.6830 
G00 Z4.0000 
G00 X-5.1153 Y4.5858 
G01 Z-0.1000 F50.00 
G01 X-5.1153 Y5.6250 F100.00 
G01 X-4.3804 Y6.3599 
G01 X-3.3412 Y6.3599 
G01 X-2.6063 Y5.6250 
G01 X-2.6063 Y4.5858 
G01 X-3.3412 Y3.8509 
G01 X-4.3804 Y3.8509 
G01 X-5.1153 Y4.5858 
G00 Z4.0000 
G00 X-5.0645 Y7.1004 
G01 Z-0.1000 F50.00 
G01 X-5.0645 Y8.1396 F100.00 
G01 X-4.3296 Y8.8745 
G01 X-3.2904 Y8.8745 
G01 X-2.5555 Y8.1396 
G01 X-2.5555 Y7.1004 
G01 X-3.2904 Y6.3655 
G01 X-4.3296 Y6.3655 
G01 X-5.0645 Y7.1004 
G00 Z4.0000 
G00 X-4.7851 Y9.7815 
G01 Z-0.1000 F50.00 
G01 X-4.7851 Y10.5893 F100.00 
G01 X-4.2139 Y11.1605 
G01 X-3.4061 Y11.1605 
G01 X-2.8349 Y10.5893 
G01 X-2.8349 Y9.7815 
G01 X-3.4061 Y9.2103 
G01 X-4.2139 Y9.2103 
G01 X-4.7851 Y9.7815 
G00 Z4.0000 
G00 X-7.3251 Y9.7815 
G01 Z-0.1000 F50.00 
G01 X-7.3251 Y10.5893 F100.00 
G01 X-6.7539 Y11.1605 
G01 X-5.9461 Y11.1605 
G01 X-5.3749 Y10.5893 
G01 X-5.3749 Y9.7815 
G01 X-5.9461 Y9.2103 
G01 X-6.7539 Y9.2103 
G01 X-7.3251 Y9.7815 
G00 Z4.0000 
G00 X-4.7851 Y2.1361 
G01 Z-0.1000 F50.00 
G01 X-4.7851 Y2.9439 F100.00 
G01 X-4.2139 Y3.5151 
G01 X-3.4061 Y3.5151 
G01 X-2.8349 Y2.9439 
G01 X-2.8349 Y2.1361 
G01 X-3.4061 Y1.5649 
G01 X-4.2139 Y1.5649 
G01 X-4.7851 Y2.1361 
G00 Z4.0000 
G00 X-7.3251 Y2.1361 
G01 Z-0.1000 F50.00 
G01 X-7.3251 Y2.9439 F100.00 
G01 X-6.7539 Y3.5151 
G01 X-5.9461 Y3.5151 
G01 X-5.3749 Y2.9439 
G01 X-5.3749 Y2.1361 
G01 X-5.9461 Y1.5649 
G01 X-6.7539 Y1.5649 
G01 X-7.3251 Y2.1361 
G00 Z4.0000 
G00 X-24.1145 Y7.2415 
G01 Z-0.1000 F50.00 
G01 X-24.1145 Y8.0493 F100.00 
G01 X-23.5433 Y8.6205 
G01 X-22.7355 Y8.6205 
G01 X-22.1643 Y8.0493 
G01 X-22.1643 Y7.2415 
G01 X-22.7355 Y6.6703 
G01 X-23.5433 Y6.6703 
G01 X-24.1145 Y7.2415 
G00 Z4.0000 
G00 X-24.1145 Y4.7015 
G01 Z-0.1000 F50.00 
G01 X-24.1145 Y5.5093 F100.00 
G01 X-23.5433 Y6.0805 
G01 X-22.7355 Y6.0805 
G01 X-22.1643 Y5.5093 
G01 X-22.1643 Y4.7015 
G01 X-22.7355 Y4.1303 
G01 X-23.5433 Y4.1303 
G01 X-24.1145 Y4.7015 
G00 Z4.0000 
G00 X-27.3465 Y10.4112 
G01 Z-0.1000 F50.00 
G01 X-25.6379 Y10.4112 F100.00 
G01 X-25.4569 Y10.3752 
G01 X-25.2864 Y10.3046 
G01 X-25.1329 Y10.2020 
G01 X-25.0024 Y10.0715 
G01 X-24.8998 Y9.9180 
G01 X-24.8292 Y9.7475 
G01 X-24.7932 Y9.5665 
G01 X-24.7932 Y9.3819 
G01 X-24.8292 Y9.2009 
G01 X-24.8998 Y9.0304 
G01 X-25.0024 Y8.8769 
G01 X-25.1329 Y8.7464 
G01 X-25.2864 Y8.6438 
G01 X-25.4569 Y8.5732 
G01 X-25.6379 Y8.5372 
G01 X-27.3465 Y8.5372 
G01 X-27.5275 Y8.5732 
G01 X-27.6980 Y8.6438 
G01 X-27.8515 Y8.7464 
G01 X-27.9820 Y8.8769 
G01 X-28.0846 Y9.0304 
G01 X-28.1552 Y9.2009 
G01 X-28.1912 Y9.3819 
G01 X-28.1912 Y9.5665 
G01 X-28.1552 Y9.7475 
G01 X-28.0846 Y9.9180 
G01 X-27.9820 Y10.0715 
G01 X-27.8515 Y10.2020 
G01 X-27.6980 Y10.3046 
G01 X-27.5275 Y10.3752 
G01 X-27.3465 Y10.4112 
G00 Z4.0000 
G00 X-27.3465 Y7.8712 
G01 Z-0.1000 F50.00 
G01 X-25.6379 Y7.8712 F100.00 
G01 X-25.4569 Y7.8352 
G01 X-25.2864 Y7.7646 
G01 X-25.1329 Y7.6620 
G01 X-25.0024 Y7.5315 
G01 X-24.8998 Y7.3780 
G01 X-24.8292 Y7.2075 
G01 X-24.7932 Y7.0265 
G01 X-24.7932 Y6.8419 
G01 X-24.8292 Y6.6609 
G01 X-24.8998 Y6.4904 
G01 X-25.0024 Y6.3369 
G01 X-25.1329 Y6.2064 
G01 X-25.2864 Y6.1038 
G01 X-25.4569 Y6.0332 
G01 X-25.6379 Y5.9972 
G01 X-27.3465 Y5.9972 
G01 X-27.5275 Y6.0332 
G01 X-27.6980 Y6.1038 
G01 X-27.8515 Y6.2064 
G01 X-27.9820 Y6.3369 
G01 X-28.0846 Y6.4904 
G01 X-28.1552 Y6.6609 
G01 X-28.1912 Y6.8419 
G01 X-28.1912 Y7.0265 
G01 X-28.1552 Y7.2075 
G01 X-28.0846 Y7.3780 
G01 X-27.9820 Y7.5315 
G01 X-27.8515 Y7.6620 
G01 X-27.6980 Y7.7646 
G01 X-27.5275 Y7.8352 
G01 X-27.3465 Y7.8712 
G00 Z4.0000 
G00 X-27.3465 Y5.3312 
G01 Z-0.1000 F50.00 
G01 X-25.6379 Y5.3312 F100.00 
G01 X-25.4569 Y5.2952 
G01 X-25.2864 Y5.2246 
G01 X-25.1329 Y5.1220 
G01 X-25.0024 Y4.9915 
G01 X-24.8998 Y4.8380 
G01 X-24.8292 Y4.6675 
G01 X-24.7932 Y4.4865 
G01 X-24.7932 Y4.3019 
G01 X-24.8292 Y4.1209 
G01 X-24.8998 Y3.9504 
G01 X-25.0024 Y3.7969 
G01 X-25.1329 Y3.6664 
G01 X-25.2864 Y3.5638 
G01 X-25.4569 Y3.4932 
G01 X-25.6379 Y3.4572 
G01 X-27.3465 Y3.4572 
G01 X-27.5275 Y3.4932 
G01 X-27.6980 Y3.5638 
G01 X-27.8515 Y3.6664 
G01 X-27.9820 Y3.7969 
G01 X-28.0846 Y3.9504 
G01 X-28.1552 Y4.1209 
G01 X-28.1912 Y4.3019 
G01 X-28.1912 Y4.4865 
G01 X-28.1552 Y4.6675 
G01 X-28.0846 Y4.8380 
G01 X-27.9820 Y4.9915 
G01 X-27.8515 Y5.1220 
G01 X-27.6980 Y5.2246 
G01 X-27.5275 Y5.2952 
G01 X-27.3465 Y5.3312 
G00 Z4.0000 
G00 X-40.3451 Y2.1361 
G01 Z-0.1000 F50.00 
G01 X-40.3451 Y2.9439 F100.00 
G01 X-39.7739 Y3.5151 
G01 X-38.9661 Y3.5151 
G01 X-38.3949 Y2.9439 
G01 X-38.3949 Y2.1361 
G01 X-38.9661 Y1.5649 
G01 X-39.7739 Y1.5649 
G01 X-40.3451 Y2.1361 
G00 Z4.0000 
G00 X-40.3451 Y4.6761 
G01 Z-0.1000 F50.00 
G01 X-40.3451 Y5.4839 F100.00 
G01 X-39.7739 Y6.0551 
G01 X-38.9661 Y6.0551 
G01 X-38.3949 Y5.4839 
G01 X-38.3949 Y4.6761 
G01 X-38.9661 Y4.1049 
G01 X-39.7739 Y4.1049 
G01 X-40.3451 Y4.6761 
G00 Z4.0000 
G00 X-45.4251 Y2.1869 
G01 Z-0.1000 F50.00 
G01 X-45.4251 Y2.9947 F100.00 
G01 X-44.8539 Y3.5659 
G01 X-44.0461 Y3.5659 
G01 X-43.4749 Y2.9947 
G01 X-43.4749 Y2.1869 
G01 X-44.0461 Y1.6157 
G01 X-44.8539 Y1.6157 
G01 X-45.4251 Y2.1869 
G00 Z4.0000 
G00 X-45.4251 Y4.7269 
G01 Z-0.1000 F50.00 
G01 X-45.4251 Y5.5347 F100.00 
G01 X-44.8539 Y6.1059 
G01 X-44.0461 Y6.1059 
G01 X-43.4749 Y5.5347 
G01 X-43.4749 Y4.7269 
G01 X-44.0461 Y4.1557 
G01 X-44.8539 Y4.1557 
G01 X-45.4251 Y4.7269 
G00 Z4.0000 
G00 X-42.8851 Y7.2161 
G01 Z-0.1000 F50.00 
G01 X-42.8851 Y8.0239 F100.00 
G01 X-42.3139 Y8.5951 
G01 X-41.5061 Y8.5951 
G01 X-40.9349 Y8.0239 
G01 X-40.9349 Y7.2161 
G01 X-41.5061 Y6.6449 
G01 X-42.3139 Y6.6449 
G01 X-42.8851 Y7.2161 
G00 Z4.0000 
G00 X-42.8851 Y9.7561 
G01 Z-0.1000 F50.00 
G01 X-42.8851 Y10.5639 F100.00 
G01 X-42.3139 Y11.1351 
G01 X-41.5061 Y11.1351 
G01 X-40.9349 Y10.5639 
G01 X-40.9349 Y9.7561 
G01 X-41.5061 Y9.1849 
G01 X-42.3139 Y9.1849 
G01 X-42.8851 Y9.7561 
G00 Z4.0000 
G00 X-9.8270 Y2.1519 
G01 Z-0.1000 F50.00 
G01 X-9.8270 Y2.9281 F100.00 
G01 X-9.2781 Y3.4770 
G01 X-8.5019 Y3.4770 
G01 X-7.9530 Y2.9281 
G01 X-7.9530 Y2.1519 
G01 X-8.5019 Y1.6030 
G01 X-9.2781 Y1.6030 
G01 X-9.8270 Y2.1519 
G00 Z4.0000 
G00 X-9.8270 Y9.7719 
G01 Z-0.1000 F50.00 
G01 X-9.8270 Y10.5481 F100.00 
G01 X-9.2781 Y11.0970 
G01 X-8.5019 Y11.0970 
G01 X-7.9530 Y10.5481 
G01 X-7.9530 Y9.7719 
G01 X-8.5019 Y9.2230 
G01 X-9.2781 Y9.2230 
G01 X-9.8270 Y9.7719 
G00 Z4.0000 
G00 X-5.2153 Y4.5443 
G01 Z-0.1000 F50.00 
G01 X-5.2153 Y5.6665 F100.00 
G01 X-4.4936 Y6.3881 
G01 X-5.1645 Y7.0589 
G01 X-5.1645 Y8.1811 
G01 X-4.3711 Y8.9745 
G01 X-3.2489 Y8.9745 
G01 X-2.4555 Y8.1811 
G01 X-2.4555 Y7.0589 
G01 X-3.1772 Y6.3373 
G01 X-2.5063 Y5.6665 
G01 X-2.5063 Y4.5443 
G01 X-3.2997 Y3.7509 
G01 X-4.4219 Y3.7509 
G01 X-5.2153 Y4.5443 
G00 Z4.0000 
G00 X-6.7510 Y6.5830 
G01 Z-0.1000 F50.00 
G01 X-8.4382 Y6.5830 F100.00 
G01 X-8.5994 Y6.6085 
G01 X-8.7547 Y6.6590 
G01 X-8.9001 Y6.7331 
G01 X-9.0322 Y6.8290 
G01 X-9.1476 Y6.9444 
G01 X-9.2435 Y7.0765 
G01 X-9.3176 Y7.2219 
G01 X-9.3681 Y7.3772 
G01 X-9.3936 Y7.5384 
G01 X-9.3936 Y7.7016 
G01 X-9.3681 Y7.8628 
G01 X-9.3176 Y8.0181 
G01 X-9.2435 Y8.1635 
G01 X-9.1476 Y8.2956 
G01 X-9.0322 Y8.4110 
G01 X-8.9001 Y8.5069 
G01 X-8.7547 Y8.5810 
G01 X-8.5994 Y8.6315 
G01 X-8.4382 Y8.6570 
G01 X-6.7510 Y8.6570 
G01 X-6.5898 Y8.6315 
G01 X-6.4345 Y8.5810 
G01 X-6.2891 Y8.5069 
G01 X-6.1570 Y8.4110 
G01 X-6.0416 Y8.2956 
G01 X-5.9457 Y8.1635 
G01 X-5.8716 Y8.0181 
G01 X-5.8211 Y7.8628 
G01 X-5.7956 Y7.7016 
G01 X-5.7956 Y7.5384 
G01 X-5.8211 Y7.3772 
G01 X-5.8716 Y7.2219 
G01 X-5.9457 Y7.0765 
G01 X-6.0416 Y6.9444 
G01 X-6.1570 Y6.8290 
G01 X-6.2891 Y6.7331 
G01 X-6.4345 Y6.6590 
G01 X-6.5898 Y6.6085 
G01 X-6.7510 Y6.5830 
G00 Z4.0000 
G00 X-6.7510 Y4.0430 
G01 Z-0.1000 F50.00 
G01 X-8.4382 Y4.0430 F100.00 
G01 X-8.5994 Y4.0685 
G01 X-8.7547 Y4.1190 
G01 X-8.9001 Y4.1931 
G01 X-9.0322 Y4.2890 
G01 X-9.1476 Y4.4044 
G01 X-9.2435 Y4.5365 
G01 X-9.3176 Y4.6819 
G01 X-9.3681 Y4.8372 
G01 X-9.3936 Y4.9984 
G01 X-9.3936 Y5.1616 
G01 X-9.3681 Y5.3228 
G01 X-9.3176 Y5.4781 
G01 X-9.2435 Y5.6235 
G01 X-9.1476 Y5.7556 
G01 X-9.0322 Y5.8710 
G01 X-8.9001 Y5.9669 
G01 X-8.7547 Y6.0410 
G01 X-8.5994 Y6.0915 
G01 X-8.4382 Y6.1170 
G01 X-6.7510 Y6.1170 
G01 X-6.5898 Y6.0915 
G01 X-6.4345 Y6.0410 
G01 X-6.2891 Y5.9669 
G01 X-6.1570 Y5.8710 
G01 X-6.0416 Y5.7556 
G01 X-5.9457 Y5.6235 
G01 X-5.8716 Y5.4781 
G01 X-5.8211 Y5.3228 
G01 X-5.7956 Y5.1616 
G01 X-5.7956 Y4.9984 
G01 X-5.8211 Y4.8372 
G01 X-5.8716 Y4.6819 
G01 X-5.9457 Y4.5365 
G01 X-6.0416 Y4.4044 
G01 X-6.1570 Y4.2890 
G01 X-6.2891 Y4.1931 
G01 X-6.4345 Y4.1190 
G01 X-6.5898 Y4.0685 
G01 X-6.7510 Y4.0430 
G00 Z4.0000 
G00 X-4.8851 Y9.7401 
G01 Z-0.1000 F50.00 
G01 X-4.8851 Y10.6307 F100.00 
G01 X-4.2553 Y11.2605 
G01 X-3.3647 Y11.2605 
G01 X-2.7349 Y10.6307 
G01 X-2.7349 Y9.7401 
G01 X-3.3647 Y9.1103 
G01 X-4.2553 Y9.1103 
G01 X-4.8851 Y9.7401 
G00 Z4.0000 
G00 X-7.4251 Y9.7401 
G01 Z-0.1000 F50.00 
G01 X-7.4251 Y10.6307 F100.00 
G01 X-6.7953 Y11.2605 
G01 X-5.9047 Y11.2605 
G01 X-5.2749 Y10.6307 
G01 X-5.2749 Y9.7401 
G01 X-5.9047 Y9.1103 
G01 X-6.7953 Y9.1103 
G01 X-7.4251 Y9.7401 
G00 Z4.0000 
G00 X-4.8851 Y2.0947 
G01 Z-0.1000 F50.00 
G01 X-4.8851 Y2.9853 F100.00 
G01 X-4.2553 Y3.6151 
G01 X-3.3647 Y3.6151 
G01 X-2.7349 Y2.9853 
G01 X-2.7349 Y2.0947 
G01 X-3.3647 Y1.4649 
G01 X-4.2553 Y1.4649 
G01 X-4.8851 Y2.0947 
G00 Z4.0000 
G00 X-7.4251 Y2.0947 
G01 Z-0.1000 F50.00 
G01 X-7.4251 Y2.9853 F100.00 
G01 X-6.7953 Y3.6151 
G01 X-5.9047 Y3.6151 
G01 X-5.2749 Y2.9853 
G01 X-5.2749 Y2.0947 
G01 X-5.9047 Y1.4649 
G01 X-6.7953 Y1.4649 
G01 X-7.4251 Y2.0947 
G00 Z4.0000 
G00 X-24.2145 Y7.2001 
G01 Z-0.1000 F50.00 
G01 X-24.2145 Y8.0907 F100.00 
G01 X-23.5847 Y8.7205 
G01 X-22.6941 Y8.7205 
G01 X-22.0643 Y8.0907 
G01 X-22.0643 Y7.2001 
G01 X-22.6941 Y6.5703 
G01 X-23.5847 Y6.5703 
G01 X-24.2145 Y7.2001 
G00 Z4.0000 
G00 X-24.2145 Y4.6601 
G01 Z-0.1000 F50.00 
G01 X-24.2145 Y5.5507 F100.00 
G01 X-23.5847 Y6.1805 
G01 X-22.6941 Y6.1805 
G01 X-22.0643 Y5.5507 
G01 X-22.0643 Y4.6601 
G01 X-22.6941 Y4.0303 
G01 X-23.5847 Y4.0303 
G01 X-24.2145 Y4.6601 
G00 Z4.0000 
G00 X-27.3358 Y10.5112 
G01 Z-0.1000 F50.00 
G01 X-25.6486 Y10.5112 F100.00 
G01 X-25.4874 Y10.4857 
G01 X-25.3321 Y10.4352 
G01 X-25.1867 Y10.3611 
G01 X-25.0546 Y10.2652 
G01 X-24.9392 Y10.1498 
G01 X-24.8433 Y10.0177 
G01 X-24.7692 Y9.8723 
G01 X-24.7187 Y9.7170 
G01 X-24.6932 Y9.5558 
G01 X-24.6932 Y9.3926 
G01 X-24.7187 Y9.2314 
G01 X-24.7692 Y9.0761 
G01 X-24.8433 Y8.9307 
G01 X-24.9392 Y8.7986 
G01 X-25.0546 Y8.6832 
G01 X-25.1867 Y8.5873 
G01 X-25.3321 Y8.5132 
G01 X-25.4874 Y8.4627 
G01 X-25.6486 Y8.4372 
G01 X-27.3358 Y8.4372 
G01 X-27.4970 Y8.4627 
G01 X-27.6523 Y8.5132 
G01 X-27.7977 Y8.5873 
G01 X-27.9298 Y8.6832 
G01 X-28.0452 Y8.7986 
G01 X-28.1411 Y8.9307 
G01 X-28.2152 Y9.0761 
G01 X-28.2657 Y9.2314 
G01 X-28.2912 Y9.3926 
G01 X-28.2912 Y9.5558 
G01 X-28.2657 Y9.7170 
G01 X-28.2152 Y9.8723 
G01 X-28.1411 Y10.0177 
G01 X-28.0452 Y10.1498 
G01 X-27.9298 Y10.2652 
G01 X-27.7977 Y10.3611 
G01 X-27.6523 Y10.4352 
G01 X-27.4970 Y10.4857 
G01 X-27.3358 Y10.5112 
G00 Z4.0000 
G00 X-27.3358 Y7.9712 
G01 Z-0.1000 F50.00 
G01 X-25.6486 Y7.9712 F100.00 
G01 X-25.4874 Y7.9457 
G01 X-25.3321 Y7.8952 
G01 X-25.1867 Y7.8211 
G01 X-25.0546 Y7.7252 
G01 X-24.9392 Y7.6098 
G01 X-24.8433 Y7.4777 
G01 X-24.7692 Y7.3323 
G01 X-24.7187 Y7.1770 
G01 X-24.6932 Y7.0158 
G01 X-24.6932 Y6.8526 
G01 X-24.7187 Y6.6914 
G01 X-24.7692 Y6.5361 
G01 X-24.8433 Y6.3907 
G01 X-24.9392 Y6.2586 
G01 X-25.0546 Y6.1432 
G01 X-25.1867 Y6.0473 
G01 X-25.3321 Y5.9732 
G01 X-25.4874 Y5.9227 
G01 X-25.6486 Y5.8972 
G01 X-27.3358 Y5.8972 
G01 X-27.4970 Y5.9227 
G01 X-27.6523 Y5.9732 
G01 X-27.7977 Y6.0473 
G01 X-27.9298 Y6.1432 
G01 X-28.0452 Y6.2586 
G01 X-28.1411 Y6.3907 
G01 X-28.2152 Y6.5361 
G01 X-28.2657 Y6.6914 
G01 X-28.2912 Y6.8526 
G01 X-28.2912 Y7.0158 
G01 X-28.2657 Y7.1770 
G01 X-28.2152 Y7.3323 
G01 X-28.1411 Y7.4777 
G01 X-28.0452 Y7.6098 
G01 X-27.9298 Y7.7252 
G01 X-27.7977 Y7.8211 
G01 X-27.6523 Y7.8952 
G01 X-27.4970 Y7.9457 
G01 X-27.3358 Y7.9712 
G00 Z4.0000 
G00 X-27.3358 Y5.4312 
G01 Z-0.1000 F50.00 
G01 X-25.6486 Y5.4312 F100.00 
G01 X-25.4874 Y5.4057 
G01 X-25.3321 Y5.3552 
G01 X-25.1867 Y5.2811 
G01 X-25.0546 Y5.1852 
G01 X-24.9392 Y5.0698 
G01 X-24.8433 Y4.9377 
G01 X-24.7692 Y4.7923 
G01 X-24.7187 Y4.6370 
G01 X-24.6932 Y4.4758 
G01 X-24.6932 Y4.3126 
G01 X-24.7187 Y4.1514 
G01 X-24.7692 Y3.9961 
G01 X-24.8433 Y3.8507 
G01 X-24.9392 Y3.7186 
G01 X-25.0546 Y3.6032 
G01 X-25.1867 Y3.5073 
G01 X-25.3321 Y3.4332 
G01 X-25.4874 Y3.3827 
G01 X-25.6486 Y3.3572 
G01 X-27.3358 Y3.3572 
G01 X-27.4970 Y3.3827 
G01 X-27.6523 Y3.4332 
G01 X-27.7977 Y3.5073 
G01 X-27.9298 Y3.6032 
G01 X-28.0452 Y3.7186 
G01 X-28.1411 Y3.8507 
G01 X-28.2152 Y3.9961 
G01 X-28.2657 Y4.1514 
G01 X-28.2912 Y4.3126 
G01 X-28.2912 Y4.4758 
G01 X-28.2657 Y4.6370 
G01 X-28.2152 Y4.7923 
G01 X-28.1411 Y4.9377 
G01 X-28.0452 Y5.0698 
G01 X-27.9298 Y5.1852 
G01 X-27.7977 Y5.2811 
G01 X-27.6523 Y5.3552 
G01 X-27.4970 Y5.4057 
G01 X-27.3358 Y5.4312 
G00 Z4.0000 
G00 X-40.4451 Y2.0947 
G01 Z-0.1000 F50.00 
G01 X-40.4451 Y2.9853 F100.00 
G01 X-39.8153 Y3.6151 
G01 X-38.9247 Y3.6151 
G01 X-38.2949 Y2.9853 
G01 X-38.2949 Y2.0947 
G01 X-38.9247 Y1.4649 
G01 X-39.8153 Y1.4649 
G01 X-40.4451 Y2.0947 
G00 Z4.0000 
G00 X-40.4451 Y4.6347 
G01 Z-0.1000 F50.00 
G01 X-40.4451 Y5.5253 F100.00 
G01 X-39.8153 Y6.1551 
G01 X-38.9247 Y6.1551 
G01 X-38.2949 Y5.5253 
G01 X-38.2949 Y4.6347 
G01 X-38.9247 Y4.0049 
G01 X-39.8153 Y4.0049 
G01 X-40.4451 Y4.6347 
G00 Z4.0000 
G00 X-45.5251 Y2.1455 
G01 Z-0.1000 F50.00 
G01 X-45.5251 Y3.0361 F100.00 
G01 X-44.8953 Y3.6659 
G01 X-44.0047 Y3.6659 
G01 X-43.3749 Y3.0361 
G01 X-43.3749 Y2.1455 
G01 X-44.0047 Y1.5157 
G01 X-44.8953 Y1.5157 
G01 X-45.5251 Y2.1455 
G00 Z4.0000 
G00 X-45.5251 Y4.6855 
G01 Z-0.1000 F50.00 
G01 X-45.5251 Y5.5761 F100.00 
G01 X-44.8953 Y6.2059 
G01 X-44.0047 Y6.2059 
G01 X-43.3749 Y5.5761 
G01 X-43.3749 Y4.6855 
G01 X-44.0047 Y4.0557 
G01 X-44.8953 Y4.0557 
G01 X-45.5251 Y4.6855 
G00 Z4.0000 
G00 X-42.9851 Y7.1747 
G01 Z-0.1000 F50.00 
G01 X-42.9851 Y8.0653 F100.00 
G01 X-42.3553 Y8.6951 
G01 X-41.4647 Y8.6951 
G01 X-40.8349 Y8.0653 
G01 X-40.8349 Y7.1747 
G01 X-41.4647 Y6.5449 
G01 X-42.3553 Y6.5449 
G01 X-42.9851 Y7.1747 
G00 Z4.0000 
G00 X-42.9851 Y9.7147 
G01 Z-0.1000 F50.00 
G01 X-42.9851 Y10.6053 F100.00 
G01 X-42.3553 Y11.2351 
G01 X-41.4647 Y11.2351 
G01 X-40.8349 Y10.6053 
G01 X-40.8349 Y9.7147 
G01 X-41.4647 Y9.0849 
G01 X-42.3553 Y9.0849 
G01 X-42.9851 Y9.7147 
G00 Z4.0000 
G00 X-9.9270 Y2.1105 
G01 Z-0.1000 F50.00 
G01 X-9.9270 Y2.9695 F100.00 
G01 X-9.3195 Y3.5770 
G01 X-8.4605 Y3.5770 
G01 X-7.8530 Y2.9695 
G01 X-7.8530 Y2.1105 
G01 X-8.4605 Y1.5030 
G01 X-9.3195 Y1.5030 
G01 X-9.9270 Y2.1105 
G00 Z4.0000 
G00 X-9.9270 Y9.7305 
G01 Z-0.1000 F50.00 
G01 X-9.9270 Y10.5895 F100.00 
G01 X-9.3195 Y11.1970 
G01 X-8.4605 Y11.1970 
G01 X-7.8530 Y10.5895 
G01 X-7.8530 Y9.7305 
G01 X-8.4605 Y9.1230 
G01 X-9.3195 Y9.1230 
G01 X-9.9270 Y9.7305 
G00 Z4.0000 
G00 X-5.3153 Y4.5029 
G01 Z-0.1000 F50.00 
G01 X-5.3153 Y5.7079 F100.00 
G01 X-4.6351 Y6.3881 
G01 X-5.2645 Y7.0175 
G01 X-5.2645 Y8.2225 
G01 X-4.4125 Y9.0745 
G01 X-4.3609 Y9.0745 
G01 X-4.9851 Y9.6987 
G01 X-4.9851 Y10.6721 
G01 X-4.2967 Y11.3605 
G01 X-3.3233 Y11.3605 
G01 X-2.6349 Y10.6721 
G01 X-2.6349 Y9.6987 
G01 X-3.2591 Y9.0745 
G01 X-3.2075 Y9.0745 
G01 X-2.3555 Y8.2225 
G01 X-2.3555 Y7.0175 
G01 X-3.0357 Y6.3373 
G01 X-2.4063 Y5.7079 
G01 X-2.4063 Y4.5029 
G01 X-3.2583 Y3.6509 
G01 X-2.6349 Y3.0267 
G01 X-2.6349 Y2.0533 
G01 X-3.3233 Y1.3649 
G01 X-4.2967 Y1.3649 
G01 X-4.9851 Y2.0533 
G01 X-4.9851 Y3.0267 
G01 X-4.3609 Y3.6509 
G01 X-4.4633 Y3.6509 
G01 X-5.3153 Y4.5029 
G00 Z4.0000 
G00 X-6.7431 Y6.4830 
G01 Z-0.1000 F50.00 
G01 X-8.4461 Y6.4830 F100.00 
G01 X-8.6228 Y6.5110 
G01 X-8.7931 Y6.5663 
G01 X-8.9525 Y6.6476 
G01 X-9.0973 Y6.7527 
G01 X-9.2239 Y6.8793 
G01 X-9.3290 Y7.0241 
G01 X-9.4103 Y7.1835 
G01 X-9.4656 Y7.3538 
G01 X-9.4936 Y7.5305 
G01 X-9.4936 Y7.7095 
G01 X-9.4656 Y7.8862 
G01 X-9.4103 Y8.0565 
G01 X-9.3290 Y8.2159 
G01 X-9.2239 Y8.3607 
G01 X-9.0973 Y8.4873 
G01 X-8.9525 Y8.5924 
G01 X-8.7931 Y8.6737 
G01 X-8.6228 Y8.7290 
G01 X-8.4461 Y8.7570 
G01 X-6.7431 Y8.7570 
G01 X-6.5663 Y8.7290 
G01 X-6.3961 Y8.6737 
G01 X-6.2367 Y8.5924 
G01 X-6.0919 Y8.4873 
G01 X-5.9653 Y8.3607 
G01 X-5.8601 Y8.2159 
G01 X-5.7789 Y8.0565 
G01 X-5.7236 Y7.8862 
G01 X-5.6956 Y7.7095 
G01 X-5.6956 Y7.5305 
G01 X-5.7236 Y7.3538 
G01 X-5.7789 Y7.1835 
G01 X-5.8601 Y7.0241 
G01 X-5.9653 Y6.8793 
G01 X-6.0919 Y6.7527 
G01 X-6.2367 Y6.6476 
G01 X-6.3961 Y6.5663 
G01 X-6.5663 Y6.5110 
G01 X-6.7431 Y6.4830 
G00 Z4.0000 
G00 X-6.7431 Y3.9430 
G01 Z-0.1000 F50.00 
G01 X-8.4461 Y3.9430 F100.00 
G01 X-8.6228 Y3.9710 
G01 X-8.7931 Y4.0263 
G01 X-8.9525 Y4.1075 
G01 X-9.0973 Y4.2127 
G01 X-9.2239 Y4.3393 
G01 X-9.3290 Y4.4841 
G01 X-9.4103 Y4.6435 
G01 X-9.4656 Y4.8138 
G01 X-9.4936 Y4.9905 
G01 X-9.4936 Y5.1695 
G01 X-9.4656 Y5.3462 
G01 X-9.4103 Y5.5165 
G01 X-9.3290 Y5.6759 
G01 X-9.2239 Y5.8207 
G01 X-9.0973 Y5.9473 
G01 X-8.9525 Y6.0524 
G01 X-8.7931 Y6.1337 
G01 X-8.6228 Y6.1890 
G01 X-8.4461 Y6.2170 
G01 X-6.7431 Y6.2170 
G01 X-6.5663 Y6.1890 
G01 X-6.3961 Y6.1337 
G01 X-6.2367 Y6.0524 
G01 X-6.0919 Y5.9473 
G01 X-5.9653 Y5.8207 
G01 X-5.8601 Y5.6759 
G01 X-5.7789 Y5.5165 
G01 X-5.7236 Y5.3462 
G01 X-5.6956 Y5.1695 
G01 X-5.6956 Y4.9905 
G01 X-5.7236 Y4.8138 
G01 X-5.7789 Y4.6435 
G01 X-5.8601 Y4.4841 
G01 X-5.9653 Y4.3393 
G01 X-6.0919 Y4.2127 
G01 X-6.2367 Y4.1075 
G01 X-6.3961 Y4.0263 
G01 X-6.5663 Y3.9710 
G01 X-6.7431 Y3.9430 
G00 Z4.0000 
G00 X-7.5251 Y9.6987 
G01 Z-0.1000 F50.00 
G01 X-7.5251 Y10.6721 F100.00 
G01 X-6.8367 Y11.3605 
G01 X-5.8633 Y11.3605 
G01 X-5.1749 Y10.6721 
G01 X-5.1749 Y9.6987 
G01 X-5.8633 Y9.0103 
G01 X-6.8367 Y9.0103 
G01 X-7.5251 Y9.6987 
G00 Z4.0000 
G00 X-7.5251 Y2.0533 
G01 Z-0.1000 F50.00 
G01 X-7.5251 Y3.0267 F100.00 
G01 X-6.8367 Y3.7151 
G01 X-5.8633 Y3.7151 
G01 X-5.1749 Y3.0267 
G01 X-5.1749 Y2.0533 
G01 X-5.8633 Y1.3649 
G01 X-6.8367 Y1.3649 
G01 X-7.5251 Y2.0533 
G00 Z4.0000 
G00 X-24.3145 Y7.1587 
G01 Z-0.1000 F50.00 
G01 X-24.3145 Y8.1321 F100.00 
G01 X-23.6261 Y8.8205 
G01 X-22.6527 Y8.8205 
G01 X-21.9643 Y8.1321 
G01 X-21.9643 Y7.1587 
G01 X-22.6527 Y6.4703 
G01 X-23.6261 Y6.4703 
G01 X-24.3145 Y7.1587 
G00 Z4.0000 
G00 X-24.3145 Y4.6187 
G01 Z-0.1000 F50.00 
G01 X-24.3145 Y5.5921 F100.00 
G01 X-23.6261 Y6.2805 
G01 X-22.6527 Y6.2805 
G01 X-21.9643 Y5.5921 
G01 X-21.9643 Y4.6187 
G01 X-22.6527 Y3.9303 
G01 X-23.6261 Y3.9303 
G01 X-24.3145 Y4.6187 
G00 Z4.0000 
G00 X-27.3437 Y10.6112 
G01 Z-0.1000 F50.00 
G01 X-25.6407 Y10.6112 F100.00 
G01 X-25.4640 Y10.5832 
G01 X-25.2937 Y10.5279 
G01 X-25.1343 Y10.4466 
G01 X-24.9895 Y10.3415 
G01 X-24.8629 Y10.2149 
G01 X-24.7578 Y10.0701 
G01 X-24.6765 Y9.9107 
G01 X-24.6212 Y9.7404 
G01 X-24.5932 Y9.5637 
G01 X-24.5932 Y9.3847 
G01 X-24.6212 Y9.2080 
G01 X-24.6765 Y9.0377 
G01 X-24.7578 Y8.8783 
G01 X-24.8629 Y8.7335 
G01 X-24.9895 Y8.6069 
G01 X-25.1343 Y8.5018 
G01 X-25.2937 Y8.4205 
G01 X-25.4640 Y8.3652 
G01 X-25.6407 Y8.3372 
G01 X-27.3437 Y8.3372 
G01 X-27.5204 Y8.3652 
G01 X-27.6907 Y8.4205 
G01 X-27.8501 Y8.5018 
G01 X-27.9949 Y8.6069 
G01 X-28.1215 Y8.7335 
G01 X-28.2266 Y8.8783 
G01 X-28.3079 Y9.0377 
G01 X-28.3632 Y9.2080 
G01 X-28.3912 Y9.3847 
G01 X-28.3912 Y9.5637 
G01 X-28.3632 Y9.7404 
G01 X-28.3079 Y9.9107 
G01 X-28.2266 Y10.0701 
G01 X-28.1215 Y10.2149 
G01 X-27.9949 Y10.3415 
G01 X-27.8501 Y10.4466 
G01 X-27.6907 Y10.5279 
G01 X-27.5204 Y10.5832 
G01 X-27.3437 Y10.6112 
G00 Z4.0000 
G00 X-27.3437 Y8.0712 
G01 Z-0.1000 F50.00 
G01 X-25.6407 Y8.0712 F100.00 
G01 X-25.4640 Y8.0432 
G01 X-25.2937 Y7.9879 
G01 X-25.1343 Y7.9066 
G01 X-24.9895 Y7.8015 
G01 X-24.8629 Y7.6749 
G01 X-24.7578 Y7.5301 
G01 X-24.6765 Y7.3707 
G01 X-24.6212 Y7.2004 
G01 X-24.5932 Y7.0237 
G01 X-24.5932 Y6.8447 
G01 X-24.6212 Y6.6680 
G01 X-24.6765 Y6.4977 
G01 X-24.7578 Y6.3383 
G01 X-24.8629 Y6.1935 
G01 X-24.9895 Y6.0669 
G01 X-25.1343 Y5.9618 
G01 X-25.2937 Y5.8805 
G01 X-25.4640 Y5.8252 
G01 X-25.6407 Y5.7972 
G01 X-27.3437 Y5.7972 
G01 X-27.5204 Y5.8252 
G01 X-27.6907 Y5.8805 
G01 X-27.8501 Y5.9618 
G01 X-27.9949 Y6.0669 
G01 X-28.1215 Y6.1935 
G01 X-28.2266 Y6.3383 
G01 X-28.3079 Y6.4977 
G01 X-28.3632 Y6.6680 
G01 X-28.3912 Y6.8447 
G01 X-28.3912 Y7.0237 
G01 X-28.3632 Y7.2004 
G01 X-28.3079 Y7.3707 
G01 X-28.2266 Y7.5301 
G01 X-28.1215 Y7.6749 
G01 X-27.9949 Y7.8015 
G01 X-27.8501 Y7.9066 
G01 X-27.6907 Y7.9879 
G01 X-27.5204 Y8.0432 
G01 X-27.3437 Y8.0712 
G00 Z4.0000 
G00 X-27.3437 Y5.5312 
G01 Z-0.1000 F50.00 
G01 X-25.6407 Y5.5312 F100.00 
G01 X-25.4640 Y5.5032 
G01 X-25.2937 Y5.4479 
G01 X-25.1343 Y5.3666 
G01 X-24.9895 Y5.2615 
G01 X-24.8629 Y5.1349 
G01 X-24.7578 Y4.9901 
G01 X-24.6765 Y4.8307 
G01 X-24.6212 Y4.6604 
G01 X-24.5932 Y4.4837 
G01 X-24.5932 Y4.3047 
G01 X-24.6212 Y4.1280 
G01 X-24.6765 Y3.9577 
G01 X-24.7578 Y3.7983 
G01 X-24.8629 Y3.6535 
G01 X-24.9895 Y3.5269 
G01 X-25.1343 Y3.4218 
G01 X-25.2937 Y3.3405 
G01 X-25.4640 Y3.2852 
G01 X-25.6407 Y3.2572 
G01 X-27.3437 Y3.2572 
G01 X-27.5204 Y3.2852 
G01 X-27.6907 Y3.3405 
G01 X-27.8501 Y3.4218 
G01 X-27.9949 Y3.5269 
G01 X-28.1215 Y3.6535 
G01 X-28.2266 Y3.7983 
G01 X-28.3079 Y3.9577 
G01 X-28.3632 Y4.1280 
G01 X-28.3912 Y4.3047 
G01 X-28.3912 Y4.4837 
G01 X-28.3632 Y4.6604 
G01 X-28.3079 Y4.8307 
G01 X-28.2266 Y4.9901 
G01 X-28.1215 Y5.1349 
G01 X-27.9949 Y5.2615 
G01 X-27.8501 Y5.3666 
G01 X-27.6907 Y5.4479 
G01 X-27.5204 Y5.5032 
G01 X-27.3437 Y5.5312 
G00 Z4.0000 
G00 X-40.5451 Y2.0533 
G01 Z-0.1000 F50.00 
G01 X-40.5451 Y3.0267 F100.00 
G01 X-39.8567 Y3.7151 
G01 X-38.8833 Y3.7151 
G01 X-38.1949 Y3.0267 
G01 X-38.1949 Y2.0533 
G01 X-38.8833 Y1.3649 
G01 X-39.8567 Y1.3649 
G01 X-40.5451 Y2.0533 
G00 Z4.0000 
G00 X-40.5451 Y4.5933 
G01 Z-0.1000 F50.00 
G01 X-40.5451 Y5.5667 F100.00 
G01 X-39.8567 Y6.2551 
G01 X-38.8833 Y6.2551 
G01 X-38.1949 Y5.5667 
G01 X-38.1949 Y4.5933 
G01 X-38.8833 Y3.9049 
G01 X-39.8567 Y3.9049 
G01 X-40.5451 Y4.5933 
G00 Z4.0000 
G00 X-45.6251 Y2.1041 
G01 Z-0.1000 F50.00 
G01 X-45.6251 Y3.0775 F100.00 
G01 X-44.9367 Y3.7659 
G01 X-43.9633 Y3.7659 
G01 X-43.2749 Y3.0775 
G01 X-43.2749 Y2.1041 
G01 X-43.9633 Y1.4157 
G01 X-44.9367 Y1.4157 
G01 X-45.6251 Y2.1041 
G00 Z4.0000 
G00 X-45.6251 Y4.6441 
G01 Z-0.1000 F50.00 
G01 X-45.6251 Y5.6175 F100.00 
G01 X-44.9367 Y6.3059 
G01 X-43.9633 Y6.3059 
G01 X-43.2749 Y5.6175 
G01 X-43.2749 Y4.6441 
G01 X-43.9633 Y3.9557 
G01 X-44.9367 Y3.9557 
G01 X-45.6251 Y4.6441 
G00 Z4.0000 
G00 X-43.0851 Y7.1333 
G01 Z-0.1000 F50.00 
G01 X-43.0851 Y8.1067 F100.00 
G01 X-42.3967 Y8.7951 
G01 X-41.4233 Y8.7951 
G01 X-40.7349 Y8.1067 
G01 X-40.7349 Y7.1333 
G01 X-41.4233 Y6.4449 
G01 X-42.3967 Y6.4449 
G01 X-43.0851 Y7.1333 
G00 Z4.0000 
G00 X-43.0851 Y9.6733 
G01 Z-0.1000 F50.00 
G01 X-43.0851 Y10.6467 F100.00 
G01 X-42.3967 Y11.3351 
G01 X-41.4233 Y11.3351 
G01 X-40.7349 Y10.6467 
G01 X-40.7349 Y9.6733 
G01 X-41.4233 Y8.9849 
G01 X-42.3967 Y8.9849 
G01 X-43.0851 Y9.6733 
G00 Z4.0000 
G00 X-10.0270 Y2.0690 
G01 Z-0.1000 F50.00 
G01 X-10.0270 Y3.0110 F100.00 
G01 X-9.3610 Y3.6770 
G01 X-8.4190 Y3.6770 
G01 X-7.7530 Y3.0110 
G01 X-7.7530 Y2.0690 
G01 X-8.4190 Y1.4030 
G01 X-9.3610 Y1.4030 
G01 X-10.0270 Y2.0690 
G00 Z4.0000 
G00 X-10.0270 Y9.6890 
G01 Z-0.1000 F50.00 
G01 X-10.0270 Y10.6310 F100.00 
G01 X-9.3610 Y11.2970 
G01 X-8.4190 Y11.2970 
G01 X-7.7530 Y10.6310 
G01 X-7.7530 Y9.6890 
G01 X-8.4190 Y9.0230 
G01 X-9.3610 Y9.0230 
G01 X-10.0270 Y9.6890 
G00 Z4.0000 
G00 X-43.1851 Y7.0918 
G01 Z-0.1000 F50.00 
G01 X-43.1851 Y8.1482 F100.00 
G01 X-42.4433 Y8.8900 
G01 X-43.1851 Y9.6318 
G01 X-43.1851 Y10.6882 
G01 X-42.4382 Y11.4351 
G01 X-41.3818 Y11.4351 
G01 X-40.6349 Y10.6882 
G01 X-40.6349 Y9.6318 
G01 X-41.3767 Y8.8900 
G01 X-40.6349 Y8.1482 
G01 X-40.6349 Y7.0918 
G01 X-41.3818 Y6.3449 
G01 X-42.4382 Y6.3449 
G01 X-43.1851 Y7.0918 
G00 Z4.0000 
G00 X-45.7251 Y2.0626 
G01 Z-0.1000 F50.00 
G01 X-45.7251 Y3.1190 F100.00 
G01 X-44.9833 Y3.8608 
G01 X-45.7251 Y4.6026 
G01 X-45.7251 Y5.6590 
G01 X-44.9782 Y6.4059 
G01 X-43.9218 Y6.4059 
G01 X-43.1749 Y5.6590 
G01 X-43.1749 Y4.6026 
G01 X-43.9167 Y3.8608 
G01 X-43.1749 Y3.1190 
G01 X-43.1749 Y2.0626 
G01 X-43.9218 Y1.3157 
G01 X-44.9782 Y1.3157 
G01 X-45.7251 Y2.0626 
G00 Z4.0000 
G00 X-24.4145 Y7.1172 
G01 Z-0.1000 F50.00 
G01 X-24.4145 Y8.1736 F100.00 
G01 X-23.6676 Y8.9205 
G01 X-22.6112 Y8.9205 
G01 X-21.8643 Y8.1736 
G01 X-21.8643 Y7.1172 
G01 X-22.6061 Y6.3754 
G01 X-21.8643 Y5.6336 
G01 X-21.8643 Y4.5772 
G01 X-22.6112 Y3.8303 
G01 X-23.6676 Y3.8303 
G01 X-24.4145 Y4.5772 
G01 X-24.4145 Y5.6336 
G01 X-23.6727 Y6.3754 
G01 X-24.4145 Y7.1172 
G00 Z4.0000 
G00 X-6.7352 Y3.8430 
G01 Z-0.1000 F50.00 
G01 X-8.4540 Y3.8430 F100.00 
G01 X-8.6463 Y3.8735 
G01 X-8.8314 Y3.9336 
G01 X-9.0049 Y4.0220 
G01 X-9.1624 Y4.1365 
G01 X-9.3001 Y4.2741 
G01 X-9.4146 Y4.4317 
G01 X-9.5030 Y4.6052 
G01 X-9.5631 Y4.7903 
G01 X-9.5936 Y4.9826 
G01 X-9.5936 Y5.1774 
G01 X-9.5631 Y5.3697 
G01 X-9.5030 Y5.5548 
G01 X-9.4146 Y5.7283 
G01 X-9.3001 Y5.8859 
G01 X-9.1624 Y6.0235 
G01 X-9.0049 Y6.1380 
G01 X-8.8314 Y6.2264 
G01 X-8.6463 Y6.2865 
G01 X-8.4540 Y6.3170 
G01 X-6.7352 Y6.3170 
G01 X-6.5429 Y6.2865 
G01 X-6.3578 Y6.2264 
G01 X-6.1843 Y6.1380 
G01 X-6.0267 Y6.0235 
G01 X-5.8891 Y5.8859 
G01 X-5.7746 Y5.7283 
G01 X-5.6862 Y5.5548 
G01 X-5.6261 Y5.3697 
G01 X-5.5956 Y5.1774 
G01 X-5.5956 Y4.9826 
G01 X-5.6261 Y4.7903 
G01 X-5.6862 Y4.6052 
G01 X-5.7746 Y4.4317 
G01 X-5.8891 Y4.2741 
G01 X-6.0267 Y4.1365 
G01 X-6.1843 Y4.0220 
G01 X-6.3578 Y3.9336 
G01 X-6.5429 Y3.8735 
G01 X-6.7352 Y3.8430 
G00 Z4.0000 
G00 X-6.7352 Y6.3830 
G01 Z-0.1000 F50.00 
G01 X-8.4540 Y6.3830 F100.00 
G01 X-8.6463 Y6.4135 
G01 X-8.8314 Y6.4736 
G01 X-9.0049 Y6.5620 
G01 X-9.1624 Y6.6765 
G01 X-9.3001 Y6.8141 
G01 X-9.4146 Y6.9717 
G01 X-9.5030 Y7.1452 
G01 X-9.5631 Y7.3303 
G01 X-9.5936 Y7.5226 
G01 X-9.5936 Y7.7174 
G01 X-9.5631 Y7.9097 
G01 X-9.5030 Y8.0948 
G01 X-9.4146 Y8.2683 
G01 X-9.3001 Y8.4259 
G01 X-9.1624 Y8.5635 
G01 X-9.0049 Y8.6780 
G01 X-8.8314 Y8.7664 
G01 X-8.6463 Y8.8265 
G01 X-8.4540 Y8.8570 
G01 X-6.7352 Y8.8570 
G01 X-6.5429 Y8.8265 
G01 X-6.3578 Y8.7664 
G01 X-6.1843 Y8.6780 
G01 X-6.0267 Y8.5635 
G01 X-5.8891 Y8.4259 
G01 X-5.7746 Y8.2683 
G01 X-5.6862 Y8.0948 
G01 X-5.6261 Y7.9097 
G01 X-5.5956 Y7.7174 
G01 X-5.5956 Y7.5226 
G01 X-5.6261 Y7.3303 
G01 X-5.6862 Y7.1452 
G01 X-5.7746 Y6.9717 
G01 X-5.8891 Y6.8141 
G01 X-6.0267 Y6.6765 
G01 X-6.1843 Y6.5620 
G01 X-6.3578 Y6.4736 
G01 X-6.5429 Y6.4135 
G01 X-6.7352 Y6.3830 
G00 Z4.0000 
G00 X-5.4153 Y4.4615 
G01 Z-0.1000 F50.00 
G01 X-5.4153 Y5.7493 F100.00 
G01 X-4.7765 Y6.3881 
G01 X-5.3645 Y6.9761 
G01 X-5.3645 Y8.2639 
G01 X-4.5281 Y9.1003 
G01 X-5.0800 Y9.6521 
G01 X-5.8218 Y8.9103 
G01 X-6.8782 Y8.9103 
G01 X-7.6251 Y9.6572 
G01 X-7.6251 Y10.7136 
G01 X-6.8782 Y11.4605 
G01 X-5.8218 Y11.4605 
G01 X-5.0800 Y10.7187 
G01 X-4.3382 Y11.4605 
G01 X-3.2818 Y11.4605 
G01 X-2.5349 Y10.7136 
G01 X-2.5349 Y9.6572 
G01 X-3.0919 Y9.1003 
G01 X-2.2555 Y8.2639 
G01 X-2.2555 Y6.9761 
G01 X-2.8943 Y6.3373 
G01 X-2.3063 Y5.7493 
G01 X-2.3063 Y4.4615 
G01 X-3.1173 Y3.6505 
G01 X-2.5349 Y3.0682 
G01 X-2.5349 Y2.0118 
G01 X-3.2818 Y1.2649 
G01 X-4.3382 Y1.2649 
G01 X-5.0800 Y2.0067 
G01 X-5.8218 Y1.2649 
G01 X-6.8782 Y1.2649 
G01 X-7.6251 Y2.0118 
G01 X-7.6251 Y3.0682 
G01 X-6.8782 Y3.8151 
G01 X-5.8218 Y3.8151 
G01 X-5.0800 Y3.0733 
G01 X-4.5535 Y3.5997 
G01 X-5.4153 Y4.4615 
G00 Z4.0000 
G00 X-27.3516 Y10.7112 
G01 Z-0.1000 F50.00 
G01 X-25.6328 Y10.7112 F100.00 
G01 X-25.4405 Y10.6807 
G01 X-25.2554 Y10.6206 
G01 X-25.0819 Y10.5322 
G01 X-24.9243 Y10.4177 
G01 X-24.7867 Y10.2801 
G01 X-24.6722 Y10.1225 
G01 X-24.5838 Y9.9490 
G01 X-24.5237 Y9.7639 
G01 X-24.4932 Y9.5716 
G01 X-24.4932 Y9.3768 
G01 X-24.5237 Y9.1845 
G01 X-24.5838 Y8.9994 
G01 X-24.6722 Y8.8259 
G01 X-24.7867 Y8.6683 
G01 X-24.9243 Y8.5307 
G01 X-25.0819 Y8.4162 
G01 X-25.2554 Y8.3278 
G01 X-25.4405 Y8.2677 
G01 X-25.6328 Y8.2372 
G01 X-27.3516 Y8.2372 
G01 X-27.5439 Y8.2677 
G01 X-27.7290 Y8.3278 
G01 X-27.9025 Y8.4162 
G01 X-28.0601 Y8.5307 
G01 X-28.1977 Y8.6683 
G01 X-28.3122 Y8.8259 
G01 X-28.4006 Y8.9994 
G01 X-28.4607 Y9.1845 
G01 X-28.4912 Y9.3768 
G01 X-28.4912 Y9.5716 
G01 X-28.4607 Y9.7639 
G01 X-28.4006 Y9.9490 
G01 X-28.3122 Y10.1225 
G01 X-28.1977 Y10.2801 
G01 X-28.0601 Y10.4177 
G01 X-27.9025 Y10.5322 
G01 X-27.7290 Y10.6206 
G01 X-27.5439 Y10.6807 
G01 X-27.3516 Y10.7112 
G00 Z4.0000 
G00 X-27.3516 Y8.1712 
G01 Z-0.1000 F50.00 
G01 X-25.6328 Y8.1712 F100.00 
G01 X-25.4405 Y8.1407 
G01 X-25.2554 Y8.0806 
G01 X-25.0819 Y7.9922 
G01 X-24.9243 Y7.8777 
G01 X-24.7867 Y7.7401 
G01 X-24.6722 Y7.5825 
G01 X-24.5838 Y7.4090 
G01 X-24.5237 Y7.2239 
G01 X-24.4932 Y7.0316 
G01 X-24.4932 Y6.8368 
G01 X-24.5237 Y6.6445 
G01 X-24.5838 Y6.4594 
G01 X-24.6722 Y6.2859 
G01 X-24.7867 Y6.1283 
G01 X-24.9243 Y5.9907 
G01 X-25.0819 Y5.8762 
G01 X-25.2554 Y5.7878 
G01 X-25.4405 Y5.7277 
G01 X-25.6328 Y5.6972 
G01 X-27.3516 Y5.6972 
G01 X-27.5439 Y5.7277 
G01 X-27.7290 Y5.7878 
G01 X-27.9025 Y5.8762 
G01 X-28.0601 Y5.9907 
G01 X-28.1977 Y6.1283 
G01 X-28.3122 Y6.2859 
G01 X-28.4006 Y6.4594 
G01 X-28.4607 Y6.6445 
G01 X-28.4912 Y6.8368 
G01 X-28.4912 Y7.0316 
G01 X-28.4607 Y7.2239 
G01 X-28.4006 Y7.4090 
G01 X-28.3122 Y7.5825 
G01 X-28.1977 Y7.7401 
G01 X-28.0601 Y7.8777 
G01 X-27.9025 Y7.9922 
G01 X-27.7290 Y8.0806 
G01 X-27.5439 Y8.1407 
G01 X-27.3516 Y8.1712 
G00 Z4.0000 
G00 X-27.3516 Y5.6312 
G01 Z-0.1000 F50.00 
G01 X-25.6328 Y5.6312 F100.00 
G01 X-25.4405 Y5.6007 
G01 X-25.2554 Y5.5406 
G01 X-25.0819 Y5.4522 
G01 X-24.9243 Y5.3377 
G01 X-24.7867 Y5.2001 
G01 X-24.6722 Y5.0425 
G01 X-24.5838 Y4.8690 
G01 X-24.5237 Y4.6839 
G01 X-24.4932 Y4.4916 
G01 X-24.4932 Y4.2968 
G01 X-24.5237 Y4.1045 
G01 X-24.5838 Y3.9194 
G01 X-24.6722 Y3.7459 
G01 X-24.7867 Y3.5883 
G01 X-24.9243 Y3.4507 
G01 X-25.0819 Y3.3362 
G01 X-25.2554 Y3.2478 
G01 X-25.4405 Y3.1877 
G01 X-25.6328 Y3.1572 
G01 X-27.3516 Y3.1572 
G01 X-27.5439 Y3.1877 
G01 X-27.7290 Y3.2478 
G01 X-27.9025 Y3.3362 
G01 X-28.0601 Y3.4507 
G01 X-28.1977 Y3.5883 
G01 X-28.3122 Y3.7459 
G01 X-28.4006 Y3.9194 
G01 X-28.4607 Y4.1045 
G01 X-28.4912 Y4.2968 
G01 X-28.4912 Y4.4916 
G01 X-28.4607 Y4.6839 
G01 X-28.4006 Y4.8690 
G01 X-28.3122 Y5.0425 
G01 X-28.1977 Y5.2001 
G01 X-28.0601 Y5.3377 
G01 X-27.9025 Y5.4522 
G01 X-27.7290 Y5.5406 
G01 X-27.5439 Y5.6007 
G01 X-27.3516 Y5.6312 
G00 Z4.0000 
G00 X-40.6451 Y2.0118 
G01 Z-0.1000 F50.00 
G01 X-40.6451 Y3.0682 F100.00 
G01 X-39.9033 Y3.8100 
G01 X-40.6451 Y4.5518 
G01 X-40.6451 Y5.6082 
G01 X-39.8982 Y6.3551 
G01 X-38.8418 Y6.3551 
G01 X-38.0949 Y5.6082 
G01 X-38.0949 Y4.5518 
G01 X-38.8367 Y3.8100 
G01 X-38.0949 Y3.0682 
G01 X-38.0949 Y2.0118 
G01 X-38.8418 Y1.2649 
G01 X-39.8982 Y1.2649 
G01 X-40.6451 Y2.0118 
G00 Z4.0000 
G00 X-10.1270 Y2.0276 
G01 Z-0.1000 F50.00 
G01 X-10.1270 Y3.0524 F100.00 
G01 X-9.4024 Y3.7770 
G01 X-8.3776 Y3.7770 
G01 X-7.6530 Y3.0524 
G01 X-7.6530 Y2.0276 
G01 X-8.3776 Y1.3030 
G01 X-9.4024 Y1.3030 
G01 X-10.1270 Y2.0276 
G00 Z4.0000 
G00 X-10.1270 Y9.6476 
G01 Z-0.1000 F50.00 
G01 X-10.1270 Y10.6724 F100.00 
G01 X-9.4024 Y11.3970 
G01 X-8.3776 Y11.3970 
G01 X-7.6530 Y10.6724 
G01 X-7.6530 Y9.6476 
G01 X-8.3776 Y8.9230 
G01 X-9.4024 Y8.9230 
G01 X-10.1270 Y9.6476 
G00 Z4.0000 
G00 X-24.5145 Y5.6750 
G01 Z-0.1000 F50.00 
G01 X-23.8141 Y6.3754 F100.00 
G01 X-24.3932 Y6.9545 
G01 X-24.3932 Y6.8290 
G01 X-24.4261 Y6.6211 
G01 X-24.4912 Y6.4210 
G01 X-24.5867 Y6.2335 
G01 X-24.7104 Y6.0632 
G01 X-24.8592 Y5.9144 
G01 X-25.0295 Y5.7907 
G01 X-25.2170 Y5.6952 
G01 X-25.3122 Y5.6642 
G01 X-25.2170 Y5.6332 
G01 X-25.0295 Y5.5377 
G01 X-24.8592 Y5.4140 
G01 X-24.7104 Y5.2652 
G01 X-24.5867 Y5.0949 
G01 X-24.5145 Y4.9532 
G01 X-24.5145 Y5.6750 
G00 Z4.0000 
G00 X-6.1319 Y8.7635 
G01 Z-0.1000 F50.00 
G01 X-5.9616 Y8.6398 F100.00 
G01 X-5.8128 Y8.4910 
G01 X-5.6891 Y8.3207 
G01 X-5.5936 Y8.1332 
G01 X-5.5285 Y7.9331 
G01 X-5.4956 Y7.7252 
G01 X-5.4956 Y7.5148 
G01 X-5.5285 Y7.3069 
G01 X-5.5936 Y7.1068 
G01 X-5.6891 Y6.9193 
G01 X-5.8128 Y6.7490 
G01 X-5.9616 Y6.6002 
G01 X-6.1319 Y6.4765 
G01 X-6.3194 Y6.3810 
G01 X-6.4146 Y6.3500 
G01 X-6.3194 Y6.3190 
G01 X-6.1319 Y6.2235 
G01 X-5.9616 Y6.0998 
G01 X-5.8128 Y5.9510 
G01 X-5.6891 Y5.7807 
G01 X-5.5936 Y5.5932 
G01 X-5.5285 Y5.3931 
G01 X-5.5153 Y5.3096 
G01 X-5.5153 Y5.7907 
G01 X-4.9179 Y6.3881 
G01 X-5.4645 Y6.9347 
G01 X-5.4645 Y8.3053 
G01 X-4.6695 Y9.1003 
G01 X-5.0800 Y9.5107 
G01 X-5.7804 Y8.8103 
G01 X-6.2237 Y8.8103 
G01 X-6.1319 Y8.7635 
G00 Z4.0000 
G00 X-4.6949 Y3.5997 
G01 Z-0.1000 F50.00 
G01 X-5.5153 Y4.4201 F100.00 
G01 X-5.5153 Y4.8504 
G01 X-5.5285 Y4.7669 
G01 X-5.5936 Y4.5668 
G01 X-5.6891 Y4.3793 
G01 X-5.8128 Y4.2090 
G01 X-5.9616 Y4.0602 
G01 X-6.1319 Y3.9365 
G01 X-6.1739 Y3.9151 
G01 X-5.7804 Y3.9151 
G01 X-5.0800 Y3.2147 
G01 X-4.6949 Y3.5997 
G00 Z4.0000 
G00 X-7.0663 Y8.9570 
G01 Z-0.1000 F50.00 
G01 X-7.6342 Y9.5250 F100.00 
G01 X-8.2022 Y8.9570 
G01 X-7.0663 Y8.9570 
G00 Z4.0000 
G00 X-7.0917 Y3.7430 
G01 Z-0.1000 F50.00 
G01 X-8.2022 Y3.7430 F100.00 
G01 X-7.6469 Y3.1877 
G01 X-7.0917 Y3.7430 
G00 Z4.0000 
G00 X-43.2851 Y7.0504 
G01 Z-0.1000 F50.00 
G01 X-43.2851 Y8.1896 F100.00 
G01 X-42.5847 Y8.8900 
G01 X-43.2851 Y9.5904 
G01 X-43.2851 Y10.7296 
G01 X-42.4796 Y11.5351 
G01 X-41.3404 Y11.5351 
G01 X-40.5349 Y10.7296 
G01 X-40.5349 Y9.5904 
G01 X-41.2353 Y8.8900 
G01 X-40.5349 Y8.1896 
G01 X-40.5349 Y7.0504 
G01 X-41.3404 Y6.2449 
G01 X-42.4796 Y6.2449 
G01 X-43.2851 Y7.0504 
G00 Z4.0000 
G00 X-45.8251 Y2.0212 
G01 Z-0.1000 F50.00 
G01 X-45.8251 Y3.1604 F100.00 
G01 X-45.1247 Y3.8608 
G01 X-45.8251 Y4.5612 
G01 X-45.8251 Y5.7004 
G01 X-45.0196 Y6.5059 
G01 X-43.8804 Y6.5059 
G01 X-43.0749 Y5.7004 
G01 X-43.0749 Y4.5612 
G01 X-43.7753 Y3.8608 
G01 X-43.0749 Y3.1604 
G01 X-43.0749 Y2.0212 
G01 X-43.8804 Y1.2157 
G01 X-45.0196 Y1.2157 
G01 X-45.8251 Y2.0212 
G00 Z4.0000 
G00 X-9.0573 Y3.9365 
G01 Z-0.1000 F50.00 
G01 X-9.2276 Y4.0602 F100.00 
G01 X-9.3764 Y4.2090 
G01 X-9.5001 Y4.3793 
G01 X-9.5956 Y4.5668 
G01 X-9.6607 Y4.7669 
G01 X-9.6936 Y4.9748 
G01 X-9.6936 Y5.1852 
G01 X-9.6607 Y5.3931 
G01 X-9.5956 Y5.5932 
G01 X-9.5001 Y5.7807 
G01 X-9.3764 Y5.9510 
G01 X-9.2276 Y6.0998 
G01 X-9.0573 Y6.2235 
G01 X-8.8698 Y6.3190 
G01 X-8.7746 Y6.3500 
G01 X-8.8698 Y6.3810 
G01 X-9.0573 Y6.4765 
G01 X-9.2276 Y6.6002 
G01 X-9.3764 Y6.7490 
G01 X-9.5001 Y6.9193 
G01 X-9.5956 Y7.1068 
G01 X-9.6607 Y7.3069 
G01 X-9.6936 Y7.5148 
G01 X-9.6936 Y7.7252 
G01 X-9.6607 Y7.9331 
G01 X-9.5956 Y8.1332 
G01 X-9.5001 Y8.3207 
G01 X-9.3764 Y8.4910 
G01 X-9.2276 Y8.6398 
G01 X-9.0573 Y8.7635 
G01 X-8.9406 Y8.8230 
G01 X-9.4438 Y8.8230 
G01 X-10.2270 Y9.6062 
G01 X-10.2270 Y10.7138 
G01 X-9.4438 Y11.4970 
G01 X-8.3362 Y11.4970 
G01 X-7.6596 Y10.8204 
G01 X-6.9196 Y11.5605 
G01 X-5.7804 Y11.5605 
G01 X-5.0800 Y10.8601 
G01 X-4.3796 Y11.5605 
G01 X-3.2404 Y11.5605 
G01 X-2.4349 Y10.7550 
G01 X-2.4349 Y9.6158 
G01 X-2.9505 Y9.1003 
G01 X-2.1555 Y8.3053 
G01 X-2.1555 Y6.9347 
G01 X-2.7529 Y6.3373 
G01 X-2.2063 Y5.7907 
G01 X-2.2063 Y4.4201 
G01 X-2.9759 Y3.6505 
G01 X-2.4349 Y3.1096 
G01 X-2.4349 Y1.9704 
G01 X-3.2404 Y1.1649 
G01 X-4.3796 Y1.1649 
G01 X-5.0800 Y1.8653 
G01 X-5.7804 Y1.1649 
G01 X-6.9196 Y1.1649 
G01 X-7.6469 Y1.8923 
G01 X-8.3362 Y1.2030 
G01 X-9.4438 Y1.2030 
G01 X-10.2270 Y1.9862 
G01 X-10.2270 Y3.0938 
G01 X-9.4438 Y3.8770 
G01 X-8.9406 Y3.8770 
G01 X-9.0573 Y3.9365 
G00 Z4.0000 
G00 X-27.3594 Y10.8112 
G01 Z-0.1000 F50.00 
G01 X-25.6250 Y10.8112 F100.00 
G01 X-25.4171 Y10.7783 
G01 X-25.2170 Y10.7132 
G01 X-25.0295 Y10.6177 
G01 X-24.8592 Y10.4940 
G01 X-24.7104 Y10.3452 
G01 X-24.5867 Y10.1749 
G01 X-24.4912 Y9.9874 
G01 X-24.4261 Y9.7873 
G01 X-24.3932 Y9.5794 
G01 X-24.3932 Y9.3690 
G01 X-24.4261 Y9.1611 
G01 X-24.4912 Y8.9610 
G01 X-24.5867 Y8.7735 
G01 X-24.7104 Y8.6032 
G01 X-24.8592 Y8.4544 
G01 X-25.0295 Y8.3307 
G01 X-25.2170 Y8.2352 
G01 X-25.3122 Y8.2042 
G01 X-25.2170 Y8.1732 
G01 X-25.0295 Y8.0777 
G01 X-24.8592 Y7.9540 
G01 X-24.7104 Y7.8052 
G01 X-24.5867 Y7.6349 
G01 X-24.5145 Y7.4932 
G01 X-24.5145 Y8.2150 
G01 X-23.7090 Y9.0205 
G01 X-22.5698 Y9.0205 
G01 X-21.7643 Y8.2150 
G01 X-21.7643 Y7.0758 
G01 X-22.4647 Y6.3754 
G01 X-21.7643 Y5.6750 
G01 X-21.7643 Y4.5358 
G01 X-22.5698 Y3.7303 
G01 X-23.7090 Y3.7303 
G01 X-24.3932 Y4.4145 
G01 X-24.3932 Y4.2890 
G01 X-24.4261 Y4.0811 
G01 X-24.4912 Y3.8810 
G01 X-24.5867 Y3.6935 
G01 X-24.7104 Y3.5232 
G01 X-24.8592 Y3.3744 
G01 X-25.0295 Y3.2507 
G01 X-25.2170 Y3.1552 
G01 X-25.4171 Y3.0901 
G01 X-25.6250 Y3.0572 
G01 X-27.3594 Y3.0572 
G01 X-27.5673 Y3.0901 
G01 X-27.7674 Y3.1552 
G01 X-27.9549 Y3.2507 
G01 X-28.1252 Y3.3744 
G01 X-28.2740 Y3.5232 
G01 X-28.3977 Y3.6935 
G01 X-28.4932 Y3.8810 
G01 X-28.5583 Y4.0811 
G01 X-28.5912 Y4.2890 
G01 X-28.5912 Y4.4994 
G01 X-28.5583 Y4.7073 
G01 X-28.4932 Y4.9074 
G01 X-28.3977 Y5.0949 
G01 X-28.2740 Y5.2652 
G01 X-28.1252 Y5.4140 
G01 X-27.9549 Y5.5377 
G01 X-27.7674 Y5.6332 
G01 X-27.6722 Y5.6642 
G01 X-27.7674 Y5.6952 
G01 X-27.9549 Y5.7907 
G01 X-28.1252 Y5.9144 
G01 X-28.2740 Y6.0632 
G01 X-28.3977 Y6.2335 
G01 X-28.4932 Y6.4210 
G01 X-28.5583 Y6.6211 
G01 X-28.5912 Y6.8290 
G01 X-28.5912 Y7.0394 
G01 X-28.5583 Y7.2473 
G01 X-28.4932 Y7.4474 
G01 X-28.3977 Y7.6349 
G01 X-28.2740 Y7.8052 
G01 X-28.1252 Y7.9540 
G01 X-27.9549 Y8.0777 
G01 X-27.7674 Y8.1732 
G01 X-27.6722 Y8.2042 
G01 X-27.7674 Y8.2352 
G01 X-27.9549 Y8.3307 
G01 X-28.1252 Y8.4544 
G01 X-28.2740 Y8.6032 
G01 X-28.3977 Y8.7735 
G01 X-28.4932 Y8.9610 
G01 X-28.5583 Y9.1611 
G01 X-28.5912 Y9.3690 
G01 X-28.5912 Y9.5794 
G01 X-28.5583 Y9.7873 
G01 X-28.4932 Y9.9874 
G01 X-28.3977 Y10.1749 
G01 X-28.2740 Y10.3452 
G01 X-28.1252 Y10.4940 
G01 X-27.9549 Y10.6177 
G01 X-27.7674 Y10.7132 
G01 X-27.5673 Y10.7783 
G01 X-27.3594 Y10.8112 
G00 Z4.0000 
G00 X-40.7451 Y1.9704 
G01 Z-0.1000 F50.00 
G01 X-40.7451 Y3.1096 F100.00 
G01 X-40.0447 Y3.8100 
G01 X-40.7451 Y4.5104 
G01 X-40.7451 Y5.6496 
G01 X-39.9396 Y6.4551 
G01 X-38.8004 Y6.4551 
G01 X-37.9949 Y5.6496 
G01 X-37.9949 Y4.5104 
G01 X-38.6953 Y3.8100 
G01 X-37.9949 Y3.1096 
G01 X-37.9949 Y1.9704 
G01 X-38.8004 Y1.1649 
G01 X-39.9396 Y1.1649 
G01 X-40.7451 Y1.9704 
G00 Z4.0000 
G00 Z4.000000
G00 X-26.4922 Y9.4742 
G01 Z-0.2794 F50.00 
G01 Z4.000000
(R4.0000  P1.000000)
(G00 Z4.000000)
G00 X-26.4922 Y6.9342 
G01 Z-1.200000
G01 Z4.000000
(G00 Z4.000000)
G00 X-26.4922 Y4.3942 
G01 Z-1.200000
G01 Z4.000000
(G00 Z4.000000)
G00 X-3.8100 Y2.5400 
G01 Z-1.200000
G01 Z4.000000
(G00 Z4.000000)
G00 X-6.3500 Y2.5400 
G01 Z-1.200000
G01 Z4.000000
(G00 Z4.000000)
G00 X-3.8100 Y10.1854 
G01 Z-1.200000
G01 Z4.000000
(G00 Z4.000000)
G00 X-6.3500 Y10.1854 
G01 Z-1.200000
G01 Z4.000000
(G00 Z4.000000)
G00 X-23.1394 Y7.6454 
G01 Z-1.200000
G01 Z4.000000
(G00 Z4.000000)
G00 X-23.1394 Y5.1054 
G01 Z-1.200000
G01 Z4.000000
(G00 Z4.000000)
G00 X-41.9100 Y7.6200 
G01 Z-1.200000
G01 Z4.000000
(G00 Z4.000000)
G00 X-41.9100 Y10.1600 
G01 Z-1.200000
G01 Z4.000000
(G00 Z4.000000)
G00 X-39.3700 Y2.5400 
G01 Z-1.200000
G01 Z4.000000
(G00 Z4.000000)
G00 X-39.3700 Y5.0800 
G01 Z-1.200000
G01 Z4.000000
(G00 Z4.000000)
G00 X-44.4500 Y2.5908 
G01 Z-1.200000
G01 Z4.000000
(G00 Z4.000000)
G00 X-44.4500 Y5.1308 
G01 Z-1.200000
G01 Z4.000000
(G00 Z4.000000)
G00 X-8.8900 Y2.5400 
G01 Z-1.200000
G01 Z4.000000
(G00 Z4.000000)
G00 X-8.8900 Y10.1600 
G01 Z-1.200000
G01 Z4.000000
(G00 Z4.000000)
G00 X-7.5946 Y5.0800 
G01 Z-1.200000
G01 Z4.000000
(G00 Z4.000000)
G00 X-7.5946 Y7.6200 
G01 Z-1.200000
G01 Z4.000000
(G00 Z4.000000)
G00 X-3.8100 Y7.6200 
G01 Z-1.200000
G01 Z4.000000
(G00 Z4.000000)
G00 X-3.8608 Y5.1054 
G01 Z-1.200000
G01 Z4.000000
G00 Z8.0000 
M05
M02
