(.../eagle/ulps/_pcb-gcode/pcb-gcode.ulp)
(Copyright 2005 - 2012 by John Johnson)
(See readme.txt for licensing terms.)
(This file generated from the board:)
(.../workspace/EEG1CH/EEG1CH.brd)
(Current profile is .../_pcb-gcode/profiles/generic.pp  )
(This file generated 2021/06/19 20:58)
(Settings from pcb-machine.h)
(  Tool Size)
(0.1000 )
(Z Axis Settings)
(  High     Up        Down     Drill)
(8.0000 	4.0000 	-0.1000 	-1.2000 )
(spindle on time = 3.0000)
(milling depth = -1.4000)
(text depth = -0.1270)
(tool change at 0.0000 0.0000 30.0000 )
(feed rate xy = F100.00 )
(feed rate z  = F50.00 )
(Settings from pcb-defaults.h)
(isolate min = 0.0250)
(isolate max = 0.5000)
(isolate step = 0.1000)
(Generated top outlines, top drill, )
(Unit of measure: mm)
(Metric Mode)
G21
(Absolute Coordinates)
G90
G00 X0.0000 Y0.0000 
M03
G04 P3.000000
G00 Z4.0000 
G00 X28.0062 Y7.4366 
G01 Z-0.1000 F50.00 
G01 X28.1412 Y7.1106 F100.00 
G01 X28.1412 Y6.7578 
G01 X28.0062 Y6.4318 
G01 X27.7566 Y6.1822 
G01 X27.4306 Y6.0472 
G01 X25.5538 Y6.0472 
G01 X25.2278 Y6.1822 
G01 X24.9322 Y6.4778 
G01 X24.8679 Y6.5044 
G01 X23.6726 Y6.5044 
G01 X23.4833 Y6.6937 
G01 X23.4190 Y6.7203 
G01 X22.7562 Y6.7203 
G01 X22.2875 Y7.1890 
G01 X22.2232 Y7.2156 
G01 X21.6280 Y7.2156 
G01 X21.5637 Y7.1890 
G01 X21.5144 Y7.1397 
G01 X21.4878 Y7.0754 
G01 X21.4878 Y6.6658 
G01 X21.4146 Y6.5926 
G01 X20.0110 Y6.5926 
G01 X19.9629 Y6.6407 
G01 X19.9250 Y6.6570 
G01 X19.8976 Y6.6683 
G01 X19.8280 Y6.6683 
G01 X19.7637 Y6.6417 
G01 X19.7152 Y6.5932 
G01 X19.2269 Y6.5926 
G01 X19.1626 Y6.5660 
G01 X19.1134 Y6.5167 
G01 X19.1010 Y6.5044 
G01 X18.7450 Y6.5044 
G01 X18.7208 Y6.5286 
G01 X18.6565 Y6.5552 
G01 X16.3357 Y6.5552 
G01 X16.3241 Y6.5600 
G01 X15.3928 Y6.5600 
G01 X15.3196 Y6.6332 
G01 X15.3196 Y7.3368 
G01 X15.3928 Y7.4100 
G01 X16.3241 Y7.4100 
G01 X16.3357 Y7.4148 
G01 X18.0976 Y7.4148 
G01 X18.1619 Y7.4414 
G01 X18.2112 Y7.4907 
G01 X18.2378 Y7.5550 
G01 X18.2378 Y8.2694 
G01 X18.3110 Y8.3426 
G01 X19.7146 Y8.3426 
G01 X19.7637 Y8.2935 
G01 X19.8280 Y8.2669 
G01 X19.8976 Y8.2669 
G01 X19.9235 Y8.2776 
G01 X19.9619 Y8.2935 
G01 X20.0110 Y8.3426 
G01 X21.4146 Y8.3426 
G01 X21.4878 Y8.2694 
G01 X21.4878 Y8.2154 
G01 X21.5144 Y8.1511 
G01 X21.5637 Y8.1018 
G01 X21.6280 Y8.0752 
G01 X22.2232 Y8.0752 
G01 X22.2875 Y8.1018 
G01 X22.3368 Y8.1511 
G01 X22.7562 Y8.5705 
G01 X23.5226 Y8.5705 
G01 X24.0645 Y8.0286 
G01 X24.0645 Y7.5042 
G01 X24.0911 Y7.4399 
G01 X24.1404 Y7.3906 
G01 X24.2047 Y7.3640 
G01 X24.8679 Y7.3640 
G01 X24.9322 Y7.3906 
G01 X24.9815 Y7.4399 
G01 X25.2278 Y7.6862 
G01 X25.5538 Y7.8212 
G01 X27.4306 Y7.8212 
G01 X27.7566 Y7.6862 
G01 X28.0062 Y7.4366 
G00 Z4.0000 
G00 X27.3366 Y7.7712 
G01 Z-0.1000 F50.00 
G01 X25.6478 Y7.7712 F100.00 
G01 X25.4861 Y7.7390 
G01 X25.3337 Y7.6759 
G01 X25.1966 Y7.5843 
G01 X25.0801 Y7.4678 
G01 X24.9885 Y7.3307 
G01 X24.9816 Y7.3140 
G01 X24.0145 Y7.3140 
G01 X24.0145 Y8.0079 
G01 X23.5019 Y8.5205 
G01 X22.7769 Y8.5205 
G01 X22.2816 Y8.0252 
G01 X21.4378 Y8.0252 
G01 X21.4378 Y8.2325 
G01 X21.4264 Y8.2601 
G01 X21.4053 Y8.2812 
G01 X21.3777 Y8.2926 
G01 X20.0479 Y8.2926 
G01 X20.0203 Y8.2812 
G01 X19.9992 Y8.2601 
G01 X19.9878 Y8.2325 
G01 X19.9878 Y6.7027 
G01 X19.9992 Y6.6751 
G01 X20.0203 Y6.6540 
G01 X20.0479 Y6.6426 
G01 X21.3777 Y6.6426 
G01 X21.4053 Y6.6540 
G01 X21.4264 Y6.6751 
G01 X21.4378 Y6.7027 
G01 X21.4378 Y7.2656 
G01 X22.2816 Y7.2656 
G01 X22.7769 Y6.7703 
G01 X23.4774 Y6.7703 
G01 X23.5467 Y6.7010 
G01 X23.6174 Y6.6303 
G01 X23.7040 Y6.5803 
G01 X23.8006 Y6.5544 
G01 X24.9816 Y6.5544 
G01 X24.9885 Y6.5377 
G01 X25.0801 Y6.4006 
G01 X25.1966 Y6.2841 
G01 X25.3337 Y6.1925 
G01 X25.4861 Y6.1294 
G01 X25.6478 Y6.0972 
G01 X27.3366 Y6.0972 
G01 X27.4983 Y6.1294 
G01 X27.6507 Y6.1925 
G01 X27.7878 Y6.2841 
G01 X27.9043 Y6.4006 
G01 X27.9959 Y6.5377 
G01 X28.0590 Y6.6901 
G01 X28.0912 Y6.8518 
G01 X28.0912 Y7.0166 
G01 X28.0590 Y7.1783 
G01 X27.9959 Y7.3307 
G01 X27.9043 Y7.4678 
G01 X27.7878 Y7.5843 
G01 X27.6507 Y7.6759 
G01 X27.4983 Y7.7390 
G01 X27.3366 Y7.7712 
G00 Z4.0000 
G00 X18.2878 Y8.2325 
G01 Z-0.1000 F50.00 
G01 X18.2878 Y7.3648 F100.00 
G01 X16.4946 Y7.3648 
G01 X16.4767 Y7.3600 
G01 X15.4297 Y7.3600 
G01 X15.4021 Y7.3486 
G01 X15.3810 Y7.3275 
G01 X15.3696 Y7.2999 
G01 X15.3696 Y6.6701 
G01 X15.3810 Y6.6425 
G01 X15.4021 Y6.6214 
G01 X15.4297 Y6.6100 
G01 X16.4767 Y6.6100 
G01 X16.4946 Y6.6052 
G01 X18.7332 Y6.6052 
G01 X18.7764 Y6.5803 
G01 X18.8730 Y6.5544 
G01 X18.9730 Y6.5544 
G01 X19.0696 Y6.5803 
G01 X19.1562 Y6.6303 
G01 X19.1685 Y6.6426 
G01 X19.6777 Y6.6426 
G01 X19.7053 Y6.6540 
G01 X19.7264 Y6.6751 
G01 X19.7378 Y6.7027 
G01 X19.7378 Y8.2325 
G01 X19.7264 Y8.2601 
G01 X19.7053 Y8.2812 
G01 X19.6777 Y8.2926 
G01 X18.3479 Y8.2926 
G01 X18.3203 Y8.2812 
G01 X18.2992 Y8.2601 
G01 X18.2878 Y8.2325 
G00 Z4.0000 
G00 X30.8844 Y8.6624 
G01 Z-0.1000 F50.00 
G01 X30.8844 Y7.9492 F100.00 
G01 X30.8112 Y7.8760 
G01 X29.1582 Y7.8760 
G01 X29.0850 Y7.9492 
G01 X29.0850 Y8.6624 
G01 X29.1582 Y8.7356 
G01 X30.8112 Y8.7356 
G01 X30.8844 Y8.6624 
G00 Z4.0000 
G00 X29.1350 Y8.6255 
G01 Z-0.1000 F50.00 
G01 X29.1350 Y7.9861 F100.00 
G01 X29.1464 Y7.9585 
G01 X29.1675 Y7.9374 
G01 X29.1951 Y7.9260 
G01 X30.7743 Y7.9260 
G01 X30.8019 Y7.9374 
G01 X30.8230 Y7.9585 
G01 X30.8344 Y7.9861 
G01 X30.8344 Y8.6255 
G01 X30.8230 Y8.6531 
G01 X30.8019 Y8.6742 
G01 X30.7743 Y8.6856 
G01 X29.1951 Y8.6856 
G01 X29.1675 Y8.6742 
G01 X29.1464 Y8.6531 
G01 X29.1350 Y8.6255 
G00 Z4.0000 
G00 X30.8112 Y5.3360 
G01 Z-0.1000 F50.00 
G01 X29.1582 Y5.3360 F100.00 
G01 X29.0850 Y5.4092 
G01 X29.0850 Y6.1224 
G01 X29.1582 Y6.1956 
G01 X30.8112 Y6.1956 
G01 X30.8844 Y6.1224 
G01 X30.8844 Y5.4092 
G01 X30.8112 Y5.3360 
G00 Z4.0000 
G00 X29.1350 Y6.0855 
G01 Z-0.1000 F50.00 
G01 X29.1350 Y5.4461 F100.00 
G01 X29.1464 Y5.4185 
G01 X29.1675 Y5.3974 
G01 X29.1951 Y5.3860 
G01 X30.7743 Y5.3860 
G01 X30.8019 Y5.3974 
G01 X30.8230 Y5.4185 
G01 X30.8344 Y5.4461 
G01 X30.8344 Y6.0855 
G01 X30.8230 Y6.1131 
G01 X30.8019 Y6.1342 
G01 X30.7743 Y6.1456 
G01 X29.1951 Y6.1456 
G01 X29.1675 Y6.1342 
G01 X29.1464 Y6.1131 
G01 X29.1350 Y6.0855 
G00 Z4.0000 
G00 X30.8112 Y6.6060 
G01 Z-0.1000 F50.00 
G01 X29.1582 Y6.6060 F100.00 
G01 X29.0850 Y6.6792 
G01 X29.0850 Y7.3924 
G01 X29.1582 Y7.4656 
G01 X30.8112 Y7.4656 
G01 X30.8844 Y7.3924 
G01 X30.8844 Y6.6792 
G01 X30.8112 Y6.6060 
G00 Z4.0000 
G00 X29.1350 Y7.3555 
G01 Z-0.1000 F50.00 
G01 X29.1350 Y6.7161 F100.00 
G01 X29.1464 Y6.6885 
G01 X29.1675 Y6.6674 
G01 X29.1951 Y6.6560 
G01 X30.7743 Y6.6560 
G01 X30.8019 Y6.6674 
G01 X30.8230 Y6.6885 
G01 X30.8344 Y6.7161 
G01 X30.8344 Y7.3555 
G01 X30.8230 Y7.3831 
G01 X30.8019 Y7.4042 
G01 X30.7743 Y7.4156 
G01 X29.1951 Y7.4156 
G01 X29.1675 Y7.4042 
G01 X29.1464 Y7.3831 
G01 X29.1350 Y7.3555 
G00 Z4.0000 
G00 X9.7457 Y4.5405 
G01 Z-0.1000 F50.00 
G01 X9.9595 Y4.7543 F100.00 
G01 X10.0960 Y4.8108 
G01 X10.1486 Y4.8326 
G01 X10.1603 Y4.8375 
G01 X10.1857 Y4.8629 
G01 X10.1928 Y4.8700 
G01 X11.1241 Y4.8700 
G01 X11.1357 Y4.8748 
G01 X12.3891 Y4.8748 
G01 X12.4007 Y4.8700 
G01 X12.4964 Y4.8700 
G01 X12.5953 Y4.7711 
G01 X12.6455 Y4.7195 
G01 X12.8245 Y4.5405 
G01 X12.9402 Y4.2612 
G01 X12.9402 Y3.3944 
G01 X12.9552 Y3.3582 
G01 X12.9552 Y1.7382 
G01 X12.8820 Y1.6650 
G01 X11.4784 Y1.6650 
G01 X11.3901 Y1.7534 
G01 X11.3257 Y1.7800 
G01 X9.4221 Y1.7800 
G01 X9.4038 Y1.7724 
G01 X9.3578 Y1.7534 
G01 X9.3085 Y1.7041 
G01 X9.2574 Y1.6530 
G01 X8.5226 Y1.6530 
G01 X8.4715 Y1.7041 
G01 X8.4222 Y1.7534 
G01 X8.3773 Y1.7720 
G01 X8.3579 Y1.7800 
G01 X6.9360 Y1.7800 
G01 X6.8716 Y1.7534 
G01 X6.8224 Y1.7041 
G01 X6.7332 Y1.6149 
G01 X5.9668 Y1.6149 
G01 X5.4249 Y2.1568 
G01 X5.4249 Y2.9232 
G01 X5.9668 Y3.4651 
G01 X6.7332 Y3.4651 
G01 X6.8716 Y3.3266 
G01 X6.9360 Y3.3000 
G01 X8.3579 Y3.3000 
G01 X8.3762 Y3.3076 
G01 X8.4222 Y3.3266 
G01 X8.4715 Y3.3759 
G01 X8.5226 Y3.4270 
G01 X9.2574 Y3.4270 
G01 X9.3066 Y3.3778 
G01 X9.3559 Y3.3285 
G01 X9.4008 Y3.3099 
G01 X9.4202 Y3.3019 
G01 X9.4898 Y3.3019 
G01 X9.5541 Y3.3285 
G01 X9.6034 Y3.3778 
G01 X9.6220 Y3.4227 
G01 X9.6300 Y3.4421 
G01 X9.6300 Y4.2612 
G01 X9.7457 Y4.5405 
G00 Z4.0000 
G00 X9.2367 Y3.3770 
G01 Z-0.1000 F50.00 
G01 X8.5433 Y3.3770 F100.00 
G01 X8.4163 Y3.2500 
G01 X6.8776 Y3.2500 
G01 X6.7125 Y3.4151 
G01 X5.9875 Y3.4151 
G01 X5.4749 Y2.9025 
G01 X5.4749 Y2.1775 
G01 X5.9875 Y1.6649 
G01 X6.7125 Y1.6649 
G01 X6.8776 Y1.8300 
G01 X8.4163 Y1.8300 
G01 X8.5433 Y1.7030 
G01 X9.2367 Y1.7030 
G01 X9.3637 Y1.8300 
G01 X11.4552 Y1.8300 
G01 X11.4552 Y1.7751 
G01 X11.4666 Y1.7475 
G01 X11.4877 Y1.7264 
G01 X11.5153 Y1.7150 
G01 X12.8451 Y1.7150 
G01 X12.8727 Y1.7264 
G01 X12.8938 Y1.7475 
G01 X12.9052 Y1.7751 
G01 X12.9052 Y3.3049 
G01 X12.8938 Y3.3325 
G01 X12.8902 Y3.3361 
G01 X12.8902 Y4.1799 
G01 X12.8629 Y4.3171 
G01 X12.8094 Y4.4463 
G01 X12.7317 Y4.5626 
G01 X12.6328 Y4.6615 
G01 X12.5196 Y4.7371 
G01 X12.5196 Y4.7599 
G01 X12.5082 Y4.7875 
G01 X12.4871 Y4.8086 
G01 X12.4595 Y4.8200 
G01 X12.2481 Y4.8200 
G01 X12.2302 Y4.8248 
G01 X11.2946 Y4.8248 
G01 X11.2767 Y4.8200 
G01 X10.2297 Y4.8200 
G01 X10.2021 Y4.8086 
G01 X10.1871 Y4.7935 
G01 X10.1829 Y4.7927 
G01 X10.0537 Y4.7392 
G01 X9.9374 Y4.6615 
G01 X9.8385 Y4.5626 
G01 X9.7608 Y4.4463 
G01 X9.7073 Y4.3171 
G01 X9.6800 Y4.1799 
G01 X9.6800 Y3.2500 
G01 X9.3637 Y3.2500 
G01 X9.2367 Y3.3770 
G00 Z4.0000 
G00 X38.9868 Y4.1549 
G01 Z-0.1000 F50.00 
G01 X38.4449 Y4.6968 F100.00 
G01 X38.4449 Y5.1958 
G01 X38.4183 Y5.2601 
G01 X38.3690 Y5.3094 
G01 X38.3047 Y5.3360 
G01 X34.5430 Y5.3360 
G01 X34.4787 Y5.3094 
G01 X34.4294 Y5.2601 
G01 X34.4028 Y5.1958 
G01 X34.4028 Y2.6120 
G01 X34.1510 Y2.3602 
G01 X26.2971 Y2.3602 
G01 X26.2619 Y2.3748 
G01 X17.2612 Y2.3748 
G01 X17.1982 Y2.4378 
G01 X16.9198 Y2.7162 
G01 X16.9198 Y3.8798 
G01 X16.8932 Y3.9441 
G01 X16.8439 Y3.9934 
G01 X16.7796 Y4.0200 
G01 X15.3928 Y4.0200 
G01 X15.3196 Y4.0932 
G01 X15.3196 Y4.7968 
G01 X15.3928 Y4.8700 
G01 X17.6964 Y4.8700 
G01 X17.7696 Y4.7968 
G01 X17.7696 Y4.6025 
G01 X17.7794 Y4.5788 
G01 X17.7794 Y3.3746 
G01 X17.8060 Y3.3103 
G01 X17.8553 Y3.2610 
G01 X17.9196 Y3.2344 
G01 X25.3674 Y3.2344 
G01 X25.3857 Y3.2420 
G01 X25.4317 Y3.2610 
G01 X25.4809 Y3.3103 
G01 X25.5076 Y3.3746 
G01 X25.5076 Y3.4442 
G01 X25.5000 Y3.4625 
G01 X25.4809 Y3.5085 
G01 X25.4317 Y3.5578 
G01 X25.3674 Y3.5844 
G01 X25.2278 Y3.6422 
G01 X24.9782 Y3.8918 
G01 X24.8432 Y4.2178 
G01 X24.8432 Y4.5706 
G01 X24.9782 Y4.8966 
G01 X25.2278 Y5.1462 
G01 X25.5538 Y5.2812 
G01 X27.4306 Y5.2812 
G01 X27.7566 Y5.1462 
G01 X28.0062 Y4.8966 
G01 X28.1412 Y4.5706 
G01 X28.1412 Y4.2178 
G01 X28.0062 Y3.8918 
G01 X27.7566 Y3.6422 
G01 X27.5818 Y3.5698 
G01 X27.5174 Y3.5432 
G01 X27.4682 Y3.4939 
G01 X27.4419 Y3.4304 
G01 X27.4416 Y3.3600 
G01 X27.4682 Y3.2957 
G01 X27.5174 Y3.2464 
G01 X27.5810 Y3.2201 
G01 X33.4030 Y3.2198 
G01 X33.4673 Y3.2464 
G01 X33.5166 Y3.2957 
G01 X33.5432 Y3.3600 
G01 X33.5432 Y5.9438 
G01 X33.7950 Y6.1956 
G01 X38.8000 Y6.1956 
G01 X38.8643 Y6.2222 
G01 X38.9136 Y6.2715 
G01 X38.9402 Y6.3358 
G01 X38.9402 Y7.7980 
G01 X39.1920 Y8.0498 
G01 X40.9938 Y8.0498 
G01 X41.0582 Y8.0764 
G01 X41.1074 Y8.1257 
G01 X41.5268 Y8.5451 
G01 X42.2932 Y8.5451 
G01 X42.8351 Y8.0032 
G01 X42.8351 Y7.2368 
G01 X42.2932 Y6.6949 
G01 X41.5268 Y6.6949 
G01 X41.1074 Y7.1143 
G01 X41.0665 Y7.1552 
G01 X41.0582 Y7.1636 
G01 X40.9938 Y7.1902 
G01 X39.9400 Y7.1902 
G01 X39.8757 Y7.1636 
G01 X39.8264 Y7.1143 
G01 X39.7998 Y7.0500 
G01 X39.7998 Y5.9962 
G01 X39.8264 Y5.9318 
G01 X39.8757 Y5.8826 
G01 X40.2951 Y5.4632 
G01 X40.2951 Y4.6968 
G01 X39.7532 Y4.1549 
G01 X38.9868 Y4.1549 
G00 Z4.0000 
G00 X40.2451 Y4.7175 
G01 Z-0.1000 F50.00 
G01 X40.2451 Y5.4425 F100.00 
G01 X39.7498 Y5.9378 
G01 X39.7498 Y7.2402 
G01 X41.0522 Y7.2402 
G01 X41.5475 Y6.7449 
G01 X42.2725 Y6.7449 
G01 X42.7851 Y7.2575 
G01 X42.7851 Y7.9825 
G01 X42.2725 Y8.4951 
G01 X41.5475 Y8.4951 
G01 X41.0522 Y7.9998 
G01 X39.3200 Y7.9998 
G01 X39.2234 Y7.9739 
G01 X39.1368 Y7.9239 
G01 X39.0661 Y7.8532 
G01 X39.0161 Y7.7666 
G01 X38.9902 Y7.6700 
G01 X38.9902 Y5.9969 
G01 X38.9174 Y6.0697 
G01 X38.8308 Y6.1197 
G01 X38.7342 Y6.1456 
G01 X33.9230 Y6.1456 
G01 X33.8264 Y6.1197 
G01 X33.7398 Y6.0697 
G01 X33.6691 Y5.9990 
G01 X33.6191 Y5.9124 
G01 X33.5932 Y5.8158 
G01 X33.5932 Y3.1698 
G01 X26.9912 Y3.1698 
G01 X26.9667 Y3.2122 
G01 X26.8720 Y3.3069 
G01 X26.8720 Y3.5572 
G01 X27.3366 Y3.5572 
G01 X27.4983 Y3.5894 
G01 X27.6507 Y3.6525 
G01 X27.7878 Y3.7441 
G01 X27.9043 Y3.8606 
G01 X27.9959 Y3.9977 
G01 X28.0590 Y4.1501 
G01 X28.0912 Y4.3118 
G01 X28.0912 Y4.4766 
G01 X28.0590 Y4.6383 
G01 X27.9959 Y4.7907 
G01 X27.9043 Y4.9278 
G01 X27.7878 Y5.0443 
G01 X27.6507 Y5.1359 
G01 X27.4983 Y5.1990 
G01 X27.3366 Y5.2312 
G01 X25.6478 Y5.2312 
G01 X25.4861 Y5.1990 
G01 X25.3337 Y5.1359 
G01 X25.1966 Y5.0443 
G01 X25.0801 Y4.9278 
G01 X24.9885 Y4.7907 
G01 X24.9254 Y4.6383 
G01 X24.8932 Y4.4766 
G01 X24.8932 Y4.3118 
G01 X24.9254 Y4.1501 
G01 X24.9885 Y3.9977 
G01 X25.0801 Y3.8606 
G01 X25.1966 Y3.7441 
G01 X25.3337 Y3.6525 
G01 X25.4861 Y3.5894 
G01 X25.6478 Y3.5572 
G01 X26.1124 Y3.5572 
G01 X26.1124 Y3.1844 
G01 X17.7294 Y3.1844 
G01 X17.7294 Y4.4270 
G01 X17.7196 Y4.4636 
G01 X17.7196 Y4.7599 
G01 X17.7082 Y4.7875 
G01 X17.6871 Y4.8086 
G01 X17.6595 Y4.8200 
G01 X15.4297 Y4.8200 
G01 X15.4021 Y4.8086 
G01 X15.3810 Y4.7875 
G01 X15.3696 Y4.7599 
G01 X15.3696 Y4.1301 
G01 X15.3810 Y4.1025 
G01 X15.4021 Y4.0814 
G01 X15.4297 Y4.0700 
G01 X16.9698 Y4.0700 
G01 X16.9698 Y2.8442 
G01 X16.9957 Y2.7476 
G01 X17.0457 Y2.6610 
G01 X17.1164 Y2.5903 
G01 X17.2060 Y2.5007 
G01 X17.2926 Y2.4507 
G01 X17.3892 Y2.4248 
G01 X26.3877 Y2.4248 
G01 X26.4422 Y2.4102 
G01 X34.0230 Y2.4102 
G01 X34.1196 Y2.4361 
G01 X34.2062 Y2.4861 
G01 X34.2769 Y2.5568 
G01 X34.3269 Y2.6434 
G01 X34.3528 Y2.7400 
G01 X34.3528 Y5.3860 
G01 X38.4949 Y5.3860 
G01 X38.4949 Y4.7175 
G01 X39.0075 Y4.2049 
G01 X39.7325 Y4.2049 
G01 X40.2451 Y4.7175 
G00 Z4.0000 
G00 X30.8844 Y4.8524 
G01 Z-0.1000 F50.00 
G01 X30.8844 Y4.1392 F100.00 
G01 X30.8112 Y4.0660 
G01 X29.1582 Y4.0660 
G01 X29.0850 Y4.1392 
G01 X29.0850 Y4.8524 
G01 X29.1582 Y4.9256 
G01 X30.8112 Y4.9256 
G01 X30.8844 Y4.8524 
G00 Z4.0000 
G00 X29.1350 Y4.8155 
G01 Z-0.1000 F50.00 
G01 X29.1350 Y4.1761 F100.00 
G01 X29.1464 Y4.1485 
G01 X29.1675 Y4.1274 
G01 X29.1951 Y4.1160 
G01 X30.7743 Y4.1160 
G01 X30.8019 Y4.1274 
G01 X30.8230 Y4.1485 
G01 X30.8344 Y4.1761 
G01 X30.8344 Y4.8155 
G01 X30.8230 Y4.8431 
G01 X30.8019 Y4.8642 
G01 X30.7743 Y4.8756 
G01 X29.1951 Y4.8756 
G01 X29.1675 Y4.8642 
G01 X29.1464 Y4.8431 
G01 X29.1350 Y4.8155 
G00 Z4.0000 
G00 X15.3928 Y8.6800 
G01 Z-0.1000 F50.00 
G01 X16.2549 Y8.6800 F100.00 
G01 X16.3192 Y8.7066 
G01 X16.3320 Y8.7194 
G01 X16.7796 Y8.7194 
G01 X16.8439 Y8.7460 
G01 X16.8932 Y8.7953 
G01 X16.9198 Y8.8596 
G01 X16.9198 Y9.9076 
G01 X17.2474 Y10.2353 
G01 X17.2892 Y10.2770 
G01 X25.3505 Y10.2770 
G01 X25.4148 Y10.3036 
G01 X25.5538 Y10.3612 
G01 X27.4306 Y10.3612 
G01 X27.5696 Y10.3036 
G01 X27.6304 Y10.2784 
G01 X27.6339 Y10.2770 
G01 X36.4020 Y10.2770 
G01 X36.4663 Y10.3036 
G01 X36.5156 Y10.3529 
G01 X36.5322 Y10.3930 
G01 X36.7940 Y10.6548 
G01 X37.1500 Y10.6548 
G01 X37.1875 Y10.6173 
G01 X37.2253 Y10.6011 
G01 X37.2527 Y10.5898 
G01 X40.9938 Y10.5898 
G01 X41.0582 Y10.6164 
G01 X41.1074 Y10.6657 
G01 X41.5268 Y11.0851 
G01 X42.2932 Y11.0851 
G01 X42.7126 Y10.6657 
G01 X42.7535 Y10.6248 
G01 X42.7618 Y10.6164 
G01 X42.8262 Y10.5898 
G01 X44.6280 Y10.5898 
G01 X44.8798 Y10.3380 
G01 X44.8798 Y6.0470 
G01 X44.9064 Y5.9826 
G01 X44.9557 Y5.9334 
G01 X45.3751 Y5.5140 
G01 X45.3751 Y4.7476 
G01 X44.8332 Y4.2057 
G01 X44.0668 Y4.2057 
G01 X43.5249 Y4.7476 
G01 X43.5249 Y5.5140 
G01 X43.9443 Y5.9334 
G01 X43.9852 Y5.9743 
G01 X43.9936 Y5.9826 
G01 X44.0202 Y6.0470 
G01 X44.0202 Y9.5900 
G01 X43.9936 Y9.6543 
G01 X43.9443 Y9.7036 
G01 X43.8800 Y9.7302 
G01 X42.8262 Y9.7302 
G01 X42.7618 Y9.7036 
G01 X42.7126 Y9.6543 
G01 X42.2932 Y9.2349 
G01 X41.5268 Y9.2349 
G01 X41.1074 Y9.6543 
G01 X41.0665 Y9.6952 
G01 X41.0582 Y9.7036 
G01 X40.9938 Y9.7302 
G01 X37.5420 Y9.7302 
G01 X37.4777 Y9.7036 
G01 X37.4284 Y9.6543 
G01 X37.4018 Y9.5900 
G01 X37.4018 Y6.8578 
G01 X37.1500 Y6.6060 
G01 X34.5684 Y6.6060 
G01 X34.4952 Y6.6792 
G01 X34.4952 Y7.3924 
G01 X34.5684 Y7.4656 
G01 X36.4020 Y7.4656 
G01 X36.4663 Y7.4922 
G01 X36.5156 Y7.5415 
G01 X36.5422 Y7.6058 
G01 X36.5422 Y7.8092 
G01 X36.5315 Y7.8350 
G01 X36.5156 Y7.8735 
G01 X36.4663 Y7.9227 
G01 X36.4020 Y7.9493 
G01 X36.3324 Y7.9493 
G01 X36.3065 Y7.9386 
G01 X36.2681 Y7.9227 
G01 X36.2214 Y7.8760 
G01 X34.5684 Y7.8760 
G01 X34.4952 Y7.9492 
G01 X34.4952 Y8.6624 
G01 X34.5684 Y8.7356 
G01 X36.2214 Y8.7356 
G01 X36.2671 Y8.6898 
G01 X36.3050 Y8.6736 
G01 X36.3324 Y8.6623 
G01 X36.4020 Y8.6623 
G01 X36.4663 Y8.6889 
G01 X36.5148 Y8.7374 
G01 X36.5308 Y8.7750 
G01 X36.5422 Y8.8024 
G01 X36.5422 Y9.2772 
G01 X36.5156 Y9.3415 
G01 X36.4663 Y9.3908 
G01 X36.4020 Y9.4174 
G01 X28.2729 Y9.4174 
G01 X28.2086 Y9.3908 
G01 X28.1593 Y9.3415 
G01 X28.1582 Y9.3389 
G01 X28.0062 Y8.9718 
G01 X27.7566 Y8.7222 
G01 X27.4306 Y8.5872 
G01 X25.5538 Y8.5872 
G01 X25.2278 Y8.7222 
G01 X24.9782 Y8.9718 
G01 X24.8251 Y9.3415 
G01 X24.7758 Y9.3908 
G01 X24.7123 Y9.4171 
G01 X17.9196 Y9.4174 
G01 X17.8553 Y9.3908 
G01 X17.8060 Y9.3415 
G01 X17.7794 Y9.2772 
G01 X17.7794 Y8.0779 
G01 X17.7696 Y8.0543 
G01 X17.7696 Y7.9032 
G01 X17.6964 Y7.8300 
G01 X16.7651 Y7.8300 
G01 X16.7535 Y7.8252 
G01 X16.3357 Y7.8252 
G01 X16.3241 Y7.8300 
G01 X15.3928 Y7.8300 
G01 X15.3196 Y7.9032 
G01 X15.3196 Y8.6068 
G01 X15.3928 Y8.6800 
G00 Z4.0000 
G00 X34.5452 Y8.6255 
G01 Z-0.1000 F50.00 
G01 X34.5452 Y7.9861 F100.00 
G01 X34.5566 Y7.9585 
G01 X34.5777 Y7.9374 
G01 X34.6053 Y7.9260 
G01 X36.1845 Y7.9260 
G01 X36.2121 Y7.9374 
G01 X36.2332 Y7.9585 
G01 X36.2446 Y7.9861 
G01 X36.2446 Y8.6255 
G01 X36.2332 Y8.6531 
G01 X36.2121 Y8.6742 
G01 X36.1845 Y8.6856 
G01 X34.6053 Y8.6856 
G01 X34.5777 Y8.6742 
G01 X34.5566 Y8.6531 
G01 X34.5452 Y8.6255 
G00 Z4.0000 
G00 X34.5452 Y7.3555 
G01 Z-0.1000 F50.00 
G01 X34.5452 Y6.7161 F100.00 
G01 X34.5566 Y6.6885 
G01 X34.5777 Y6.6674 
G01 X34.6053 Y6.6560 
G01 X37.0220 Y6.6560 
G01 X37.1186 Y6.6819 
G01 X37.2052 Y6.7319 
G01 X37.2759 Y6.8026 
G01 X37.3259 Y6.8892 
G01 X37.3518 Y6.9858 
G01 X37.3518 Y9.7802 
G01 X41.0522 Y9.7802 
G01 X41.5475 Y9.2849 
G01 X42.2725 Y9.2849 
G01 X42.7678 Y9.7802 
G01 X44.0702 Y9.7802 
G01 X44.0702 Y5.9886 
G01 X43.5749 Y5.4933 
G01 X43.5749 Y4.7683 
G01 X44.0875 Y4.2557 
G01 X44.8125 Y4.2557 
G01 X45.3251 Y4.7683 
G01 X45.3251 Y5.4933 
G01 X44.8298 Y5.9886 
G01 X44.8298 Y10.2100 
G01 X44.8039 Y10.3066 
G01 X44.7539 Y10.3932 
G01 X44.6832 Y10.4639 
G01 X44.5966 Y10.5139 
G01 X44.5000 Y10.5398 
G01 X42.7678 Y10.5398 
G01 X42.2725 Y11.0351 
G01 X41.5475 Y11.0351 
G01 X41.0522 Y10.5398 
G01 X37.1863 Y10.5398 
G01 X37.1186 Y10.5789 
G01 X37.0220 Y10.6048 
G01 X36.9220 Y10.6048 
G01 X36.8254 Y10.5789 
G01 X36.7388 Y10.5289 
G01 X36.6681 Y10.4582 
G01 X36.6181 Y10.3716 
G01 X36.5922 Y10.2750 
G01 X36.5922 Y10.2270 
G01 X27.6240 Y10.2270 
G01 X27.4983 Y10.2790 
G01 X27.3366 Y10.3112 
G01 X25.6478 Y10.3112 
G01 X25.4861 Y10.2790 
G01 X25.3604 Y10.2270 
G01 X17.4172 Y10.2270 
G01 X17.3206 Y10.2011 
G01 X17.2340 Y10.1511 
G01 X17.1164 Y10.0335 
G01 X17.0457 Y9.9628 
G01 X16.9957 Y9.8762 
G01 X16.9698 Y9.7796 
G01 X16.9698 Y8.6300 
G01 X16.6800 Y8.6300 
G01 X16.6566 Y8.6435 
G01 X16.5600 Y8.6694 
G01 X16.4600 Y8.6694 
G01 X16.3634 Y8.6435 
G01 X16.3400 Y8.6300 
G01 X15.4297 Y8.6300 
G01 X15.4021 Y8.6186 
G01 X15.3810 Y8.5975 
G01 X15.3696 Y8.5699 
G01 X15.3696 Y7.9401 
G01 X15.3810 Y7.9125 
G01 X15.4021 Y7.8914 
G01 X15.4297 Y7.8800 
G01 X16.4767 Y7.8800 
G01 X16.4946 Y7.8752 
G01 X16.5946 Y7.8752 
G01 X16.6125 Y7.8800 
G01 X17.6595 Y7.8800 
G01 X17.6871 Y7.8914 
G01 X17.7082 Y7.9125 
G01 X17.7196 Y7.9401 
G01 X17.7196 Y8.1932 
G01 X17.7294 Y8.2298 
G01 X17.7294 Y9.4674 
G01 X24.8932 Y9.4674 
G01 X24.8932 Y9.3918 
G01 X24.9254 Y9.2301 
G01 X24.9885 Y9.0777 
G01 X25.0801 Y8.9406 
G01 X25.1966 Y8.8241 
G01 X25.3337 Y8.7325 
G01 X25.4861 Y8.6694 
G01 X25.6478 Y8.6372 
G01 X27.3366 Y8.6372 
G01 X27.4983 Y8.6694 
G01 X27.6507 Y8.7325 
G01 X27.7878 Y8.8241 
G01 X27.9043 Y8.9406 
G01 X27.9959 Y9.0777 
G01 X28.0590 Y9.2301 
G01 X28.0912 Y9.3918 
G01 X28.0912 Y9.4674 
G01 X36.5922 Y9.4674 
G01 X36.5922 Y7.4156 
G01 X34.6053 Y7.4156 
G01 X34.5777 Y7.4042 
G01 X34.5566 Y7.3831 
G01 X34.5452 Y7.3555 
G00 Z4.0000 
G00 X6.0806 Y4.5776 
G01 Z-0.1000 F50.00 
G01 X5.9456 Y4.9036 F100.00 
G01 X5.9456 Y5.2564 
G01 X6.0806 Y5.5824 
G01 X6.3302 Y5.8320 
G01 X6.6562 Y5.9670 
G01 X8.4965 Y5.9670 
G01 X8.5608 Y5.9936 
G01 X8.6100 Y6.0429 
G01 X8.7120 Y6.1448 
G01 X11.5535 Y6.1448 
G01 X11.5651 Y6.1400 
G01 X12.4964 Y6.1400 
G01 X12.5696 Y6.0668 
G01 X12.5696 Y5.3632 
G01 X12.4964 Y5.2900 
G01 X11.5651 Y5.2900 
G01 X11.5535 Y5.2852 
G01 X9.4600 Y5.2852 
G01 X9.3957 Y5.2586 
G01 X9.3464 Y5.2093 
G01 X9.3198 Y5.1450 
G01 X9.3198 Y4.9020 
G01 X9.1886 Y4.7708 
G01 X9.1871 Y4.7672 
G01 X9.1086 Y4.5776 
G01 X8.8590 Y4.3280 
G01 X8.5330 Y4.1930 
G01 X6.6562 Y4.1930 
G01 X6.3302 Y4.3280 
G01 X6.0806 Y4.5776 
G00 Z4.0000 
G00 X12.4595 Y5.3400 
G01 Z-0.1000 F50.00 
G01 X12.4871 Y5.3514 F100.00 
G01 X12.5082 Y5.3725 
G01 X12.5196 Y5.4001 
G01 X12.5196 Y6.0299 
G01 X12.5082 Y6.0575 
G01 X12.4871 Y6.0786 
G01 X12.4595 Y6.0900 
G01 X11.4125 Y6.0900 
G01 X11.3946 Y6.0948 
G01 X8.8400 Y6.0948 
G01 X8.7434 Y6.0689 
G01 X8.6568 Y6.0189 
G01 X8.5861 Y5.9482 
G01 X8.5548 Y5.8940 
G01 X8.4390 Y5.9170 
G01 X6.7502 Y5.9170 
G01 X6.5885 Y5.8848 
G01 X6.4361 Y5.8217 
G01 X6.2990 Y5.7301 
G01 X6.1825 Y5.6136 
G01 X6.0909 Y5.4765 
G01 X6.0278 Y5.3241 
G01 X5.9956 Y5.1624 
G01 X5.9956 Y4.9976 
G01 X6.0278 Y4.8359 
G01 X6.0909 Y4.6835 
G01 X6.1825 Y4.5464 
G01 X6.2990 Y4.4299 
G01 X6.4361 Y4.3383 
G01 X6.5885 Y4.2752 
G01 X6.7502 Y4.2430 
G01 X8.4390 Y4.2430 
G01 X8.6007 Y4.2752 
G01 X8.7531 Y4.3383 
G01 X8.8902 Y4.4299 
G01 X9.0067 Y4.5464 
G01 X9.0983 Y4.6835 
G01 X9.1462 Y4.7991 
G01 X9.1939 Y4.8468 
G01 X9.2439 Y4.9334 
G01 X9.2698 Y5.0300 
G01 X9.2698 Y5.3352 
G01 X11.3946 Y5.3352 
G01 X11.4125 Y5.3400 
G01 X12.4595 Y5.3400 
G00 Z4.0000 
G00 X5.0145 Y8.1189 
G01 Z-0.1000 F50.00 
G01 X5.0145 Y7.1211 F100.00 
G01 X4.3806 Y6.4872 
G01 X4.3540 Y6.4229 
G01 X4.3540 Y6.3533 
G01 X4.3806 Y6.2890 
G01 X4.4299 Y6.2397 
G01 X5.0653 Y5.6043 
G01 X5.0653 Y4.6065 
G01 X4.5966 Y4.1378 
G01 X4.5700 Y4.0735 
G01 X4.5700 Y3.1260 
G01 X4.5966 Y3.0616 
G01 X4.6459 Y3.0124 
G01 X4.7351 Y2.9232 
G01 X4.7351 Y2.1568 
G01 X4.1932 Y1.6149 
G01 X3.4268 Y1.6149 
G01 X2.8849 Y2.1568 
G01 X2.8849 Y2.9232 
G01 X3.0234 Y3.0616 
G01 X3.0500 Y3.1260 
G01 X3.0500 Y4.1751 
G01 X3.0234 Y4.2394 
G01 X2.9741 Y4.2886 
G01 X2.6563 Y4.6065 
G01 X2.6563 Y5.6043 
G01 X3.2409 Y6.1889 
G01 X3.2792 Y6.2272 
G01 X3.2902 Y6.2382 
G01 X3.3168 Y6.3025 
G01 X3.3168 Y6.3721 
G01 X3.2902 Y6.4364 
G01 X3.2409 Y6.4857 
G01 X2.6055 Y7.1211 
G01 X2.6055 Y8.1189 
G01 X3.0234 Y8.5368 
G01 X3.0500 Y8.6011 
G01 X3.0500 Y9.5994 
G01 X3.0234 Y9.6638 
G01 X2.9741 Y9.7130 
G01 X2.8849 Y9.8022 
G01 X2.8849 Y10.5686 
G01 X3.4268 Y11.1105 
G01 X4.1932 Y11.1105 
G01 X4.7351 Y10.5686 
G01 X4.7351 Y9.8022 
G01 X4.5966 Y9.6638 
G01 X4.5700 Y9.5994 
G01 X4.5700 Y8.6011 
G01 X4.5966 Y8.5368 
G01 X4.6459 Y8.4875 
G01 X5.0145 Y8.1189 
G00 Z4.0000 
G00 X4.6851 Y2.1775 
G01 Z-0.1000 F50.00 
G01 X4.6851 Y2.9025 F100.00 
G01 X4.5200 Y3.0676 
G01 X4.5200 Y4.1319 
G01 X5.0153 Y4.6272 
G01 X5.0153 Y5.5836 
G01 X4.3390 Y6.2599 
G01 X3.3826 Y6.2599 
G01 X2.7063 Y5.5836 
G01 X2.7063 Y4.6272 
G01 X3.1000 Y4.2335 
G01 X3.1000 Y3.0676 
G01 X2.9349 Y2.9025 
G01 X2.9349 Y2.1775 
G01 X3.4475 Y1.6649 
G01 X4.1725 Y1.6649 
G01 X4.6851 Y2.1775 
G00 Z4.0000 
G00 X4.9645 Y7.1418 
G01 Z-0.1000 F50.00 
G01 X4.9645 Y8.0982 F100.00 
G01 X4.5200 Y8.5427 
G01 X4.5200 Y9.6578 
G01 X4.6851 Y9.8229 
G01 X4.6851 Y10.5479 
G01 X4.1725 Y11.0605 
G01 X3.4475 Y11.0605 
G01 X2.9349 Y10.5479 
G01 X2.9349 Y9.8229 
G01 X3.1000 Y9.6578 
G01 X3.1000 Y8.5427 
G01 X2.6555 Y8.0982 
G01 X2.6555 Y7.1418 
G01 X3.3318 Y6.4655 
G01 X4.2882 Y6.4655 
G01 X4.9645 Y7.1418 
G00 Z4.0000 
G00 X12.5696 Y7.3368 
G01 Z-0.1000 F50.00 
G01 X12.5696 Y6.6332 F100.00 
G01 X12.4964 Y6.5600 
G01 X11.5651 Y6.5600 
G01 X11.5535 Y6.5552 
G01 X8.7120 Y6.5552 
G01 X8.5608 Y6.7064 
G01 X8.4965 Y6.7330 
G01 X6.6562 Y6.7330 
G01 X6.3302 Y6.8680 
G01 X6.0806 Y7.1176 
G01 X5.9456 Y7.4436 
G01 X5.9456 Y7.7964 
G01 X6.0806 Y8.1224 
G01 X6.3302 Y8.3720 
G01 X6.6562 Y8.5070 
G01 X8.5330 Y8.5070 
G01 X8.8590 Y8.3720 
G01 X9.1086 Y8.1224 
G01 X9.1886 Y7.9292 
G01 X9.2378 Y7.8800 
G01 X9.3198 Y7.7980 
G01 X9.3198 Y7.5550 
G01 X9.3464 Y7.4907 
G01 X9.3957 Y7.4414 
G01 X9.4600 Y7.4148 
G01 X11.5535 Y7.4148 
G01 X11.5651 Y7.4100 
G01 X12.4964 Y7.4100 
G01 X12.5696 Y7.3368 
G00 Z4.0000 
G00 X6.7502 Y6.7830 
G01 Z-0.1000 F50.00 
G01 X8.4390 Y6.7830 F100.00 
G01 X8.5548 Y6.8060 
G01 X8.5861 Y6.7518 
G01 X8.6568 Y6.6811 
G01 X8.7434 Y6.6311 
G01 X8.8400 Y6.6052 
G01 X11.3946 Y6.6052 
G01 X11.4125 Y6.6100 
G01 X12.4595 Y6.6100 
G01 X12.4871 Y6.6214 
G01 X12.5082 Y6.6425 
G01 X12.5196 Y6.6701 
G01 X12.5196 Y7.2999 
G01 X12.5082 Y7.3275 
G01 X12.4871 Y7.3486 
G01 X12.4595 Y7.3600 
G01 X11.4125 Y7.3600 
G01 X11.3946 Y7.3648 
G01 X9.2698 Y7.3648 
G01 X9.2698 Y7.6700 
G01 X9.2439 Y7.7666 
G01 X9.1939 Y7.8532 
G01 X9.1462 Y7.9009 
G01 X9.0983 Y8.0165 
G01 X9.0067 Y8.1536 
G01 X8.8902 Y8.2701 
G01 X8.7531 Y8.3617 
G01 X8.6007 Y8.4248 
G01 X8.4390 Y8.4570 
G01 X6.7502 Y8.4570 
G01 X6.5885 Y8.4248 
G01 X6.4361 Y8.3617 
G01 X6.2990 Y8.2701 
G01 X6.1825 Y8.1536 
G01 X6.0909 Y8.0165 
G01 X6.0278 Y7.8641 
G01 X5.9956 Y7.7024 
G01 X5.9956 Y7.5376 
G01 X6.0278 Y7.3759 
G01 X6.0909 Y7.2235 
G01 X6.1825 Y7.0864 
G01 X6.2990 Y6.9699 
G01 X6.4361 Y6.8783 
G01 X6.5885 Y6.8152 
G01 X6.7502 Y6.7830 
G00 Z4.0000 
G00 X9.8095 Y7.9457 
G01 Z-0.1000 F50.00 
G01 X9.5957 Y8.1595 F100.00 
G01 X9.4800 Y8.4388 
G01 X9.4800 Y9.1328 
G01 X9.4534 Y9.1971 
G01 X9.4041 Y9.2464 
G01 X9.3398 Y9.2730 
G01 X8.5226 Y9.2730 
G01 X8.4461 Y9.3495 
G01 X8.3968 Y9.3988 
G01 X8.3333 Y9.4251 
G01 X6.9360 Y9.4254 
G01 X6.8716 Y9.3988 
G01 X6.8224 Y9.3495 
G01 X6.7332 Y9.2603 
G01 X5.9668 Y9.2603 
G01 X5.4249 Y9.8022 
G01 X5.4249 Y10.5686 
G01 X5.9668 Y11.1105 
G01 X6.7332 Y11.1105 
G01 X6.8716 Y10.9720 
G01 X6.9360 Y10.9454 
G01 X8.3833 Y10.9454 
G01 X8.4092 Y10.9561 
G01 X8.4476 Y10.9720 
G01 X8.4969 Y11.0213 
G01 X8.5226 Y11.0470 
G01 X9.2574 Y11.0470 
G01 X9.2831 Y11.0213 
G01 X9.3312 Y10.9732 
G01 X9.3693 Y10.9567 
G01 X9.3967 Y10.9454 
G01 X11.3003 Y10.9454 
G01 X11.3647 Y10.9720 
G01 X11.4139 Y11.0213 
G01 X11.4530 Y11.0604 
G01 X12.8566 Y11.0604 
G01 X12.9298 Y10.9872 
G01 X12.9298 Y9.3672 
G01 X12.9148 Y9.3309 
G01 X12.9148 Y8.4388 
G01 X12.7991 Y8.1595 
G01 X12.5962 Y7.9566 
G01 X12.5773 Y7.9109 
G01 X12.4964 Y7.8300 
G01 X12.3753 Y7.8300 
G01 X12.3637 Y7.8252 
G01 X11.1357 Y7.8252 
G01 X11.1241 Y7.8300 
G01 X10.0888 Y7.8300 
G01 X9.8095 Y7.9457 
G00 Z4.0000 
G00 X9.2367 Y10.9970 
G01 Z-0.1000 F50.00 
G01 X8.5433 Y10.9970 F100.00 
G01 X8.4417 Y10.8954 
G01 X6.8776 Y10.8954 
G01 X6.7125 Y11.0605 
G01 X5.9875 Y11.0605 
G01 X5.4749 Y10.5479 
G01 X5.4749 Y9.8229 
G01 X5.9875 Y9.3103 
G01 X6.7125 Y9.3103 
G01 X6.8776 Y9.4754 
G01 X8.3909 Y9.4754 
G01 X8.5433 Y9.3230 
G01 X9.2367 Y9.3230 
G01 X9.3891 Y9.4754 
G01 X9.5300 Y9.4754 
G01 X9.5300 Y8.5201 
G01 X9.5573 Y8.3829 
G01 X9.6108 Y8.2537 
G01 X9.6885 Y8.1374 
G01 X9.7874 Y8.0385 
G01 X9.9037 Y7.9608 
G01 X10.0329 Y7.9073 
G01 X10.1701 Y7.8800 
G01 X11.2767 Y7.8800 
G01 X11.2946 Y7.8752 
G01 X12.2048 Y7.8752 
G01 X12.2227 Y7.8800 
G01 X12.4595 Y7.8800 
G01 X12.4871 Y7.8914 
G01 X12.5082 Y7.9125 
G01 X12.5196 Y7.9401 
G01 X12.5196 Y7.9798 
G01 X12.6074 Y8.0385 
G01 X12.7063 Y8.1374 
G01 X12.7840 Y8.2537 
G01 X12.8375 Y8.3829 
G01 X12.8648 Y8.5201 
G01 X12.8648 Y9.3893 
G01 X12.8684 Y9.3929 
G01 X12.8798 Y9.4205 
G01 X12.8798 Y10.9503 
G01 X12.8684 Y10.9779 
G01 X12.8473 Y10.9990 
G01 X12.8197 Y11.0104 
G01 X11.4899 Y11.0104 
G01 X11.4623 Y10.9990 
G01 X11.4412 Y10.9779 
G01 X11.4298 Y10.9503 
G01 X11.4298 Y10.8954 
G01 X9.3383 Y10.8954 
G01 X9.2367 Y10.9970 
G00 Z4.0000 
G00 X1.0950 Y8.0887 
G01 Z-0.1000 F50.00 
G01 X1.1216 Y8.0243 F100.00 
G01 X1.1216 Y8.0243 
G01 X1.1910 Y7.8569 
G01 X1.1910 Y7.3831 
G01 X1.1216 Y7.2157 
G01 X1.0961 Y7.1540 
G01 X1.0950 Y7.1513 
G01 X1.0950 Y5.5487 
G01 X1.1216 Y5.4843 
G01 X1.1910 Y5.3169 
G01 X1.1910 Y4.8431 
G01 X1.1216 Y4.6757 
G01 X1.0961 Y4.6140 
G01 X1.0950 Y4.6113 
G01 X1.0950 Y1.2352 
G01 X1.1216 Y1.1709 
G01 X1.1709 Y1.1216 
G01 X1.2352 Y1.0950 
G01 X47.0248 Y1.0950 
G01 X47.0891 Y1.1216 
G01 X47.1384 Y1.1709 
G01 X47.1650 Y1.2352 
G01 X47.1650 Y4.6113 
G01 X47.1384 Y4.6757 
G01 X47.0690 Y4.8431 
G01 X47.0690 Y5.3169 
G01 X47.1384 Y5.4843 
G01 X47.1645 Y5.5475 
G01 X47.1650 Y7.1513 
G01 X47.1384 Y7.2157 
G01 X47.0690 Y7.3831 
G01 X47.0690 Y7.8569 
G01 X47.1384 Y8.0243 
G01 X47.1645 Y8.0875 
G01 X47.1650 Y11.4648 
G01 X47.1384 Y11.5291 
G01 X47.0891 Y11.5784 
G01 X47.0248 Y11.6050 
G01 X1.2352 Y11.6050 
G01 X1.1709 Y11.5784 
G01 X1.1216 Y11.5291 
G01 X1.0950 Y11.4648 
G01 X1.0950 Y11.3952 
G01 X1.0950 Y8.0887 
G00 Z4.0000 
G00 X36.4733 Y8.0306 
G01 Z-0.1000 F50.00 
G01 X36.4336 Y8.0412 F100.00 
G01 X36.4034 Y8.0493 
G01 X36.3446 Y8.0493 
G01 X36.3446 Y8.5623 
G01 X36.4034 Y8.5623 
G01 X36.4323 Y8.5700 
G01 X36.4733 Y8.5810 
G01 X36.4922 Y8.5919 
G01 X36.4922 Y8.0197 
G01 X36.4733 Y8.0306 
G00 Z4.0000 
G00 X9.4300 Y9.3749 
G01 Z-0.1000 F50.00 
G01 X9.4300 Y9.3434 F100.00 
G01 X9.4111 Y9.3543 
G01 X9.4300 Y9.3749 
G00 Z4.0000 
G00 X27.0467 Y3.2736 
G01 Z-0.1000 F50.00 
G01 X26.9720 Y3.3483 F100.00 
G01 X26.9720 Y3.4572 
G01 X27.3465 Y3.4572 
G01 X27.3463 Y3.4486 
G01 X27.3416 Y3.4310 
G01 X27.3416 Y3.4128 
G01 X27.3392 Y3.3948 
G01 X27.3416 Y3.3768 
G01 X27.3416 Y3.3586 
G01 X27.3463 Y3.3410 
G01 X27.3486 Y3.3230 
G01 X27.3556 Y3.3062 
G01 X27.3603 Y3.2887 
G01 X27.3694 Y3.2729 
G01 X27.3707 Y3.2698 
G01 X27.0489 Y3.2698 
G01 X27.0467 Y3.2736 
G00 Z4.0000 
G00 X25.5797 Y3.2875 
G01 Z-0.1000 F50.00 
G01 X25.5888 Y3.3033 F100.00 
G01 X25.5936 Y3.3208 
G01 X25.6005 Y3.3376 
G01 X25.6029 Y3.3556 
G01 X25.6076 Y3.3732 
G01 X25.6076 Y3.3914 
G01 X25.6100 Y3.4094 
G01 X25.6076 Y3.4274 
G01 X25.6076 Y3.4456 
G01 X25.6029 Y3.4632 
G01 X25.6379 Y3.4572 
G01 X26.0124 Y3.4572 
G01 X26.0124 Y3.2844 
G01 X25.5785 Y3.2844 
G01 X25.5797 Y3.2875 
G00 Z4.0000 
G00 X19.8378 Y8.1669 
G01 Z-0.1000 F50.00 
G01 X19.8878 Y8.1669 F100.00 
G01 X19.8878 Y6.7683 
G01 X19.8378 Y6.7683 
G01 X19.8378 Y8.1669 
G00 Z4.0000 
G00 X3.4168 Y6.3599 
G01 Z-0.1000 F50.00 
G01 X3.4168 Y6.3655 F100.00 
G01 X4.2540 Y6.3655 
G01 X4.2540 Y6.3599 
G01 X3.4168 Y6.3599 
G00 Z4.0000 
G00 X47.2650 Y8.0873 
G01 Z-0.1000 F50.00 
G01 X47.2650 Y8.1055 F100.00 
G01 X47.2674 Y8.1235 
G01 X47.2650 Y8.1415 
G01 X47.2650 Y11.4662 
G01 X47.2463 Y11.5361 
G01 X47.2101 Y11.5989 
G01 X47.1589 Y11.6501 
G01 X47.0961 Y11.6863 
G01 X47.0262 Y11.7050 
G01 X1.2338 Y11.7050 
G01 X1.1639 Y11.6863 
G01 X1.1011 Y11.6501 
G01 X1.0499 Y11.5989 
G01 X1.0137 Y11.5361 
G01 X0.9950 Y11.4662 
G01 X0.9950 Y8.1415 
G01 X0.9926 Y8.1235 
G01 X0.9950 Y8.1055 
G01 X0.9950 Y8.0873 
G01 X0.9997 Y8.0697 
G01 X1.0021 Y8.0517 
G01 X1.0090 Y8.0349 
G01 X1.0137 Y8.0173 
G01 X1.0228 Y8.0016 
G01 X1.0910 Y7.8370 
G01 X1.0910 Y7.4030 
G01 X1.0228 Y7.2384 
G01 X1.0137 Y7.2227 
G01 X1.0090 Y7.2051 
G01 X1.0021 Y7.1883 
G01 X0.9997 Y7.1703 
G01 X0.9950 Y7.1527 
G01 X0.9950 Y7.1345 
G01 X0.9926 Y7.1165 
G01 X0.9950 Y7.0985 
G01 X0.9950 Y5.6015 
G01 X0.9926 Y5.5835 
G01 X0.9950 Y5.5655 
G01 X0.9950 Y5.5473 
G01 X0.9997 Y5.5297 
G01 X1.0021 Y5.5117 
G01 X1.0090 Y5.4949 
G01 X1.0137 Y5.4773 
G01 X1.0228 Y5.4616 
G01 X1.0910 Y5.2970 
G01 X1.0910 Y4.8630 
G01 X1.0228 Y4.6984 
G01 X1.0137 Y4.6827 
G01 X1.0090 Y4.6651 
G01 X1.0021 Y4.6483 
G01 X0.9997 Y4.6303 
G01 X0.9950 Y4.6127 
G01 X0.9950 Y4.5945 
G01 X0.9926 Y4.5765 
G01 X0.9950 Y4.5585 
G01 X0.9950 Y1.2338 
G01 X1.0137 Y1.1639 
G01 X1.0499 Y1.1011 
G01 X1.1011 Y1.0499 
G01 X1.1639 Y1.0137 
G01 X1.2338 Y0.9950 
G01 X47.0262 Y0.9950 
G01 X47.0961 Y1.0137 
G01 X47.1589 Y1.0499 
G01 X47.2101 Y1.1011 
G01 X47.2463 Y1.1639 
G01 X47.2650 Y1.2338 
G01 X47.2650 Y4.5585 
G01 X47.2674 Y4.5765 
G01 X47.2650 Y4.5945 
G01 X47.2650 Y4.6127 
G01 X47.2603 Y4.6303 
G01 X47.2579 Y4.6483 
G01 X47.2510 Y4.6651 
G01 X47.2463 Y4.6827 
G01 X47.2372 Y4.6984 
G01 X47.1690 Y4.8630 
G01 X47.1690 Y5.2970 
G01 X47.2372 Y5.4616 
G01 X47.2463 Y5.4773 
G01 X47.2510 Y5.4949 
G01 X47.2579 Y5.5117 
G01 X47.2603 Y5.5297 
G01 X47.2650 Y5.5473 
G01 X47.2650 Y5.5655 
G01 X47.2674 Y5.5835 
G01 X47.2650 Y5.6015 
G01 X47.2650 Y7.0985 
G01 X47.2674 Y7.1165 
G01 X47.2650 Y7.1345 
G01 X47.2650 Y7.1527 
G01 X47.2603 Y7.1703 
G01 X47.2579 Y7.1883 
G01 X47.2510 Y7.2051 
G01 X47.2463 Y7.2227 
G01 X47.2372 Y7.2384 
G01 X47.1690 Y7.4030 
G01 X47.1690 Y7.8370 
G01 X47.2372 Y8.0016 
G01 X47.2463 Y8.0173 
G01 X47.2510 Y8.0349 
G01 X47.2579 Y8.0517 
G01 X47.2603 Y8.0697 
G01 X47.2650 Y8.0873 
G00 Z4.0000 
G00 X47.3650 Y8.0741 
G01 Z-0.1000 F50.00 
G01 X47.3650 Y8.0989 F100.00 
G01 X47.3682 Y8.1235 
G01 X47.3650 Y8.1480 
G01 X47.3650 Y11.4794 
G01 X47.3394 Y11.5747 
G01 X47.2901 Y11.6603 
G01 X47.2203 Y11.7301 
G01 X47.1347 Y11.7794 
G01 X47.0394 Y11.8050 
G01 X1.2206 Y11.8050 
G01 X1.1253 Y11.7794 
G01 X1.0397 Y11.7301 
G01 X0.9699 Y11.6603 
G01 X0.9206 Y11.5747 
G01 X0.8950 Y11.4794 
G01 X0.8950 Y8.1480 
G01 X0.8918 Y8.1235 
G01 X0.8950 Y8.0989 
G01 X0.8950 Y8.0741 
G01 X0.9014 Y8.0501 
G01 X0.9047 Y8.0256 
G01 X0.9141 Y8.0027 
G01 X0.9206 Y7.9787 
G01 X0.9330 Y7.9573 
G01 X0.9910 Y7.8171 
G01 X0.9910 Y7.4229 
G01 X0.9330 Y7.2827 
G01 X0.9206 Y7.2613 
G01 X0.9141 Y7.2373 
G01 X0.9047 Y7.2144 
G01 X0.9014 Y7.1898 
G01 X0.8950 Y7.1659 
G01 X0.8950 Y7.1411 
G01 X0.8918 Y7.1165 
G01 X0.8950 Y7.0920 
G01 X0.8950 Y5.6080 
G01 X0.8918 Y5.5835 
G01 X0.8950 Y5.5589 
G01 X0.8950 Y5.5341 
G01 X0.9014 Y5.5101 
G01 X0.9047 Y5.4856 
G01 X0.9141 Y5.4627 
G01 X0.9206 Y5.4387 
G01 X0.9330 Y5.4173 
G01 X0.9910 Y5.2771 
G01 X0.9910 Y4.8829 
G01 X0.9330 Y4.7427 
G01 X0.9206 Y4.7213 
G01 X0.9141 Y4.6973 
G01 X0.9047 Y4.6744 
G01 X0.9014 Y4.6498 
G01 X0.8950 Y4.6259 
G01 X0.8950 Y4.6011 
G01 X0.8918 Y4.5765 
G01 X0.8950 Y4.5520 
G01 X0.8950 Y1.2206 
G01 X0.9206 Y1.1253 
G01 X0.9699 Y1.0397 
G01 X1.0397 Y0.9699 
G01 X1.1253 Y0.9206 
G01 X1.2206 Y0.8950 
G01 X47.0394 Y0.8950 
G01 X47.1347 Y0.9206 
G01 X47.2203 Y0.9699 
G01 X47.2901 Y1.0397 
G01 X47.3394 Y1.1253 
G01 X47.3650 Y1.2206 
G01 X47.3650 Y4.5520 
G01 X47.3682 Y4.5765 
G01 X47.3650 Y4.6011 
G01 X47.3650 Y4.6259 
G01 X47.3586 Y4.6498 
G01 X47.3553 Y4.6744 
G01 X47.3459 Y4.6973 
G01 X47.3394 Y4.7213 
G01 X47.3270 Y4.7427 
G01 X47.2690 Y4.8829 
G01 X47.2690 Y5.2771 
G01 X47.3270 Y5.4173 
G01 X47.3394 Y5.4387 
G01 X47.3459 Y5.4627 
G01 X47.3553 Y5.4856 
G01 X47.3586 Y5.5102 
G01 X47.3650 Y5.5341 
G01 X47.3650 Y5.5589 
G01 X47.3682 Y5.5835 
G01 X47.3650 Y5.6080 
G01 X47.3650 Y7.0920 
G01 X47.3682 Y7.1165 
G01 X47.3650 Y7.1411 
G01 X47.3650 Y7.1659 
G01 X47.3586 Y7.1898 
G01 X47.3553 Y7.2144 
G01 X47.3459 Y7.2373 
G01 X47.3394 Y7.2613 
G01 X47.3270 Y7.2827 
G01 X47.2690 Y7.4229 
G01 X47.2690 Y7.8171 
G01 X47.3270 Y7.9573 
G01 X47.3394 Y7.9787 
G01 X47.3459 Y8.0027 
G01 X47.3553 Y8.0256 
G01 X47.3586 Y8.0502 
G01 X47.3650 Y8.0741 
G00 Z4.0000 
G00 X47.4650 Y8.0609 
G01 Z-0.1000 F50.00 
G01 X47.4650 Y8.0923 F100.00 
G01 X47.4691 Y8.1235 
G01 X47.4650 Y8.1546 
G01 X47.4650 Y11.4925 
G01 X47.4326 Y11.6133 
G01 X47.3701 Y11.7217 
G01 X47.2817 Y11.8101 
G01 X47.1733 Y11.8726 
G01 X47.0525 Y11.9050 
G01 X1.2075 Y11.9050 
G01 X1.0867 Y11.8726 
G01 X0.9783 Y11.8101 
G01 X0.8899 Y11.7217 
G01 X0.8274 Y11.6133 
G01 X0.7950 Y11.4925 
G01 X0.7950 Y8.1546 
G01 X0.7909 Y8.1235 
G01 X0.7950 Y8.0923 
G01 X0.7950 Y8.0609 
G01 X0.8031 Y8.0306 
G01 X0.8072 Y7.9995 
G01 X0.8192 Y7.9705 
G01 X0.8274 Y7.9401 
G01 X0.8431 Y7.9129 
G01 X0.8910 Y7.7972 
G01 X0.8910 Y7.4428 
G01 X0.8431 Y7.3271 
G01 X0.8274 Y7.2999 
G01 X0.8192 Y7.2695 
G01 X0.8072 Y7.2405 
G01 X0.8031 Y7.2094 
G01 X0.7950 Y7.1791 
G01 X0.7950 Y7.1477 
G01 X0.7909 Y7.1165 
G01 X0.7950 Y7.0854 
G01 X0.7950 Y5.6146 
G01 X0.7909 Y5.5835 
G01 X0.7950 Y5.5523 
G01 X0.7950 Y5.5209 
G01 X0.8031 Y5.4906 
G01 X0.8072 Y5.4595 
G01 X0.8192 Y5.4305 
G01 X0.8274 Y5.4001 
G01 X0.8431 Y5.3729 
G01 X0.8910 Y5.2572 
G01 X0.8910 Y4.9028 
G01 X0.8431 Y4.7871 
G01 X0.8274 Y4.7599 
G01 X0.8192 Y4.7295 
G01 X0.8072 Y4.7005 
G01 X0.8031 Y4.6694 
G01 X0.7950 Y4.6391 
G01 X0.7950 Y4.6077 
G01 X0.7909 Y4.5765 
G01 X0.7950 Y4.5454 
G01 X0.7950 Y1.2075 
G01 X0.8274 Y1.0867 
G01 X0.8899 Y0.9783 
G01 X0.9783 Y0.8899 
G01 X1.0867 Y0.8274 
G01 X1.2075 Y0.7950 
G01 X47.0525 Y0.7950 
G01 X47.1733 Y0.8274 
G01 X47.2817 Y0.8899 
G01 X47.3701 Y0.9783 
G01 X47.4326 Y1.0867 
G01 X47.4650 Y1.2075 
G01 X47.4650 Y4.5454 
G01 X47.4691 Y4.5765 
G01 X47.4650 Y4.6077 
G01 X47.4650 Y4.6391 
G01 X47.4569 Y4.6694 
G01 X47.4528 Y4.7005 
G01 X47.4408 Y4.7295 
G01 X47.4326 Y4.7599 
G01 X47.4169 Y4.7871 
G01 X47.3690 Y4.9028 
G01 X47.3690 Y5.2572 
G01 X47.4169 Y5.3729 
G01 X47.4326 Y5.4001 
G01 X47.4408 Y5.4305 
G01 X47.4528 Y5.4595 
G01 X47.4569 Y5.4906 
G01 X47.4650 Y5.5209 
G01 X47.4650 Y5.5523 
G01 X47.4691 Y5.5835 
G01 X47.4650 Y5.6146 
G01 X47.4650 Y7.0854 
G01 X47.4691 Y7.1165 
G01 X47.4650 Y7.1477 
G01 X47.4650 Y7.1791 
G01 X47.4569 Y7.2094 
G01 X47.4528 Y7.2405 
G01 X47.4408 Y7.2695 
G01 X47.4326 Y7.2999 
G01 X47.4169 Y7.3271 
G01 X47.3690 Y7.4428 
G01 X47.3690 Y7.7972 
G01 X47.4169 Y7.9129 
G01 X47.4326 Y7.9401 
G01 X47.4408 Y7.9705 
G01 X47.4528 Y7.9995 
G01 X47.4569 Y8.0306 
G01 X47.4650 Y8.0609 
G00 Z4.0000 
G00 X47.5650 Y8.0478 
G01 Z-0.1000 F50.00 
G01 X47.5650 Y8.0858 F100.00 
G01 X47.5700 Y8.1235 
G01 X47.5650 Y8.1612 
G01 X47.5650 Y11.5057 
G01 X47.5258 Y11.6519 
G01 X47.4501 Y11.7831 
G01 X47.3431 Y11.8901 
G01 X47.2119 Y11.9658 
G01 X47.0657 Y12.0050 
G01 X1.1943 Y12.0050 
G01 X1.0481 Y11.9658 
G01 X0.9169 Y11.8901 
G01 X0.8099 Y11.7831 
G01 X0.7342 Y11.6519 
G01 X0.6950 Y11.5057 
G01 X0.6950 Y8.1612 
G01 X0.6900 Y8.1235 
G01 X0.6950 Y8.0858 
G01 X0.6950 Y8.0478 
G01 X0.7048 Y8.0111 
G01 X0.7098 Y7.9734 
G01 X0.7243 Y7.9382 
G01 X0.7342 Y7.9015 
G01 X0.7532 Y7.8686 
G01 X0.7910 Y7.7773 
G01 X0.7910 Y7.4627 
G01 X0.7532 Y7.3714 
G01 X0.7342 Y7.3385 
G01 X0.7243 Y7.3018 
G01 X0.7098 Y7.2666 
G01 X0.7048 Y7.2289 
G01 X0.6950 Y7.1922 
G01 X0.6950 Y7.1542 
G01 X0.6900 Y7.1165 
G01 X0.6950 Y7.0788 
G01 X0.6950 Y5.6212 
G01 X0.6900 Y5.5835 
G01 X0.6950 Y5.5458 
G01 X0.6950 Y5.5078 
G01 X0.7048 Y5.4710 
G01 X0.7098 Y5.4334 
G01 X0.7243 Y5.3982 
G01 X0.7342 Y5.3615 
G01 X0.7532 Y5.3286 
G01 X0.7910 Y5.2373 
G01 X0.7910 Y4.9227 
G01 X0.7532 Y4.8314 
G01 X0.7342 Y4.7985 
G01 X0.7243 Y4.7618 
G01 X0.7098 Y4.7266 
G01 X0.7048 Y4.6889 
G01 X0.6950 Y4.6522 
G01 X0.6950 Y4.6142 
G01 X0.6900 Y4.5765 
G01 X0.6950 Y4.5388 
G01 X0.6950 Y1.1943 
G01 X0.7342 Y1.0481 
G01 X0.8099 Y0.9169 
G01 X0.9169 Y0.8099 
G01 X1.0481 Y0.7342 
G01 X1.1943 Y0.6950 
G01 X47.0657 Y0.6950 
G01 X47.2119 Y0.7342 
G01 X47.3431 Y0.8099 
G01 X47.4501 Y0.9169 
G01 X47.5258 Y1.0481 
G01 X47.5650 Y1.1943 
G01 X47.5650 Y4.5388 
G01 X47.5700 Y4.5765 
G01 X47.5650 Y4.6142 
G01 X47.5650 Y4.6522 
G01 X47.5552 Y4.6889 
G01 X47.5502 Y4.7266 
G01 X47.5356 Y4.7618 
G01 X47.5258 Y4.7985 
G01 X47.5068 Y4.8314 
G01 X47.4690 Y4.9227 
G01 X47.4690 Y5.2373 
G01 X47.5068 Y5.3286 
G01 X47.5258 Y5.3615 
G01 X47.5356 Y5.3982 
G01 X47.5502 Y5.4334 
G01 X47.5552 Y5.4711 
G01 X47.5650 Y5.5078 
G01 X47.5650 Y5.5458 
G01 X47.5700 Y5.5835 
G01 X47.5650 Y5.6212 
G01 X47.5650 Y7.0788 
G01 X47.5700 Y7.1165 
G01 X47.5650 Y7.1542 
G01 X47.5650 Y7.1922 
G01 X47.5552 Y7.2289 
G01 X47.5502 Y7.2666 
G01 X47.5356 Y7.3018 
G01 X47.5258 Y7.3385 
G01 X47.5068 Y7.3714 
G01 X47.4690 Y7.4627 
G01 X47.4690 Y7.7773 
G01 X47.5068 Y7.8686 
G01 X47.5258 Y7.9015 
G01 X47.5356 Y7.9382 
G01 X47.5502 Y7.9734 
G01 X47.5552 Y8.0111 
G01 X47.5650 Y8.0478 
G00 Z4.0000 
G00 X0.5950 Y8.0570 
G01 Z-0.1000 F50.00 
G01 X0.6209 Y7.9266 F100.00 
G01 X0.6718 Y7.8037 
G01 X0.6910 Y7.7574 
G01 X0.6910 Y7.4826 
G01 X0.6718 Y7.4363 
G01 X0.6235 Y7.3195 
G01 X0.6209 Y7.3134 
G01 X0.5950 Y7.1830 
G01 X0.5950 Y5.5170 
G01 X0.6209 Y5.3866 
G01 X0.6718 Y5.2637 
G01 X0.6910 Y5.2174 
G01 X0.6910 Y4.9426 
G01 X0.6718 Y4.8963 
G01 X0.6235 Y4.7795 
G01 X0.6209 Y4.7734 
G01 X0.5950 Y4.6430 
G01 X0.5950 Y1.2035 
G01 X0.6209 Y1.0731 
G01 X0.6718 Y0.9503 
G01 X0.7457 Y0.8397 
G01 X0.8397 Y0.7457 
G01 X0.9503 Y0.6718 
G01 X1.0731 Y0.6209 
G01 X1.2035 Y0.5950 
G01 X47.0565 Y0.5950 
G01 X47.1869 Y0.6209 
G01 X47.3097 Y0.6718 
G01 X47.4203 Y0.7457 
G01 X47.5143 Y0.8397 
G01 X47.5882 Y0.9503 
G01 X47.6391 Y1.0731 
G01 X47.6650 Y1.2035 
G01 X47.6650 Y4.6430 
G01 X47.6391 Y4.7734 
G01 X47.6132 Y4.8358 
G01 X47.5882 Y4.8963 
G01 X47.5690 Y4.9426 
G01 X47.5690 Y5.2174 
G01 X47.5882 Y5.2637 
G01 X47.6117 Y5.3204 
G01 X47.6391 Y5.3866 
G01 X47.6650 Y5.5170 
G01 X47.6650 Y7.1830 
G01 X47.6391 Y7.3134 
G01 X47.6132 Y7.3758 
G01 X47.5882 Y7.4363 
G01 X47.5690 Y7.4826 
G01 X47.5690 Y7.7574 
G01 X47.5882 Y7.8037 
G01 X47.6117 Y7.8604 
G01 X47.6391 Y7.9266 
G01 X47.6650 Y8.0570 
G01 X47.6650 Y11.4965 
G01 X47.6391 Y11.6269 
G01 X47.5882 Y11.7497 
G01 X47.5143 Y11.8603 
G01 X47.4203 Y11.9543 
G01 X47.3097 Y12.0282 
G01 X47.1869 Y12.0791 
G01 X47.0565 Y12.1050 
G01 X1.2035 Y12.1050 
G01 X1.0731 Y12.0791 
G01 X0.9503 Y12.0282 
G01 X0.8397 Y11.9543 
G01 X0.7457 Y11.8603 
G01 X0.6718 Y11.7497 
G01 X0.6209 Y11.6269 
G01 X0.5950 Y11.4965 
G01 X0.5950 Y11.3635 
G01 X0.5950 Y8.0570 
G00 Z4.0000 
G00 Z4.000000
G00 X0.0000 Y5.0800 
G01 Z-0.2794 F50.00 
G01 Z4.000000
(R4.0000  P1.000000)
(G00 Z4.000000)
G00 X0.0000 Y7.6200 
G01 Z-1.200000
G01 Z4.000000
(G00 Z4.000000)
G00 X48.2600 Y7.6200 
G01 Z-1.200000
G01 Z4.000000
(G00 Z4.000000)
G00 X48.2600 Y5.0800 
G01 Z-1.200000
G01 Z4.000000
(G00 Z4.000000)
G00 X26.4922 Y9.4742 
G01 Z-1.200000
G01 Z4.000000
(G00 Z4.000000)
G00 X26.4922 Y6.9342 
G01 Z-1.200000
G01 Z4.000000
(G00 Z4.000000)
G00 X26.4922 Y4.3942 
G01 Z-1.200000
G01 Z4.000000
(G00 Z4.000000)
G00 X3.8100 Y2.5400 
G01 Z-1.200000
G01 Z4.000000
(G00 Z4.000000)
G00 X6.3500 Y2.5400 
G01 Z-1.200000
G01 Z4.000000
(G00 Z4.000000)
G00 X3.8100 Y10.1854 
G01 Z-1.200000
G01 Z4.000000
(G00 Z4.000000)
G00 X6.3500 Y10.1854 
G01 Z-1.200000
G01 Z4.000000
(G00 Z4.000000)
G00 X23.1394 Y7.6454 
G01 Z-1.200000
G01 Z4.000000
(G00 Z4.000000)
G00 X23.1394 Y5.1054 
G01 Z-1.200000
G01 Z4.000000
(G00 Z4.000000)
G00 X41.9100 Y7.6200 
G01 Z-1.200000
G01 Z4.000000
(G00 Z4.000000)
G00 X41.9100 Y10.1600 
G01 Z-1.200000
G01 Z4.000000
(G00 Z4.000000)
G00 X39.3700 Y2.5400 
G01 Z-1.200000
G01 Z4.000000
(G00 Z4.000000)
G00 X39.3700 Y5.0800 
G01 Z-1.200000
G01 Z4.000000
(G00 Z4.000000)
G00 X44.4500 Y2.5908 
G01 Z-1.200000
G01 Z4.000000
(G00 Z4.000000)
G00 X44.4500 Y5.1308 
G01 Z-1.200000
G01 Z4.000000
(G00 Z4.000000)
G00 X8.8900 Y2.5400 
G01 Z-1.200000
G01 Z4.000000
(G00 Z4.000000)
G00 X8.8900 Y10.1600 
G01 Z-1.200000
G01 Z4.000000
(G00 Z4.000000)
G00 X7.5946 Y5.0800 
G01 Z-1.200000
G01 Z4.000000
(G00 Z4.000000)
G00 X7.5946 Y7.6200 
G01 Z-1.200000
G01 Z4.000000
(G00 Z4.000000)
G00 X3.8100 Y7.6200 
G01 Z-1.200000
G01 Z4.000000
(G00 Z4.000000)
G00 X3.8608 Y5.1054 
G01 Z-1.200000
G01 Z4.000000
G00 Z8.0000 
M05
M02
